;START_OF_HEADER
;HEADER_VERSION:0.1
;FLAVOR:Griffin
;GENERATOR.NAME:Cura_SteamEngine
;GENERATOR.VERSION:3.5.1
;GENERATOR.BUILD_DATE:2018-10-16
;TARGET_MACHINE.NAME:Ultimaker 3
;EXTRUDER_TRAIN.0.INITIAL_TEMPERATURE:210
;EXTRUDER_TRAIN.0.MATERIAL.VOLUME_USED:16358
;EXTRUDER_TRAIN.0.MATERIAL.GUID:506c9f0d-e3aa-4bd4-b2d2-23e2425b1aa9
;EXTRUDER_TRAIN.0.NOZZLE.DIAMETER:0.4
;EXTRUDER_TRAIN.0.NOZZLE.NAME:AA 0.4
;BUILD_PLATE.TYPE:glass
;BUILD_PLATE.INITIAL_TEMPERATURE:60
;PRINT.TIME:7388
;PRINT.SIZE.MIN.X:9
;PRINT.SIZE.MIN.Y:6
;PRINT.SIZE.MIN.Z:0.27
;PRINT.SIZE.MAX.X:163.192
;PRINT.SIZE.MAX.Y:132.082
;PRINT.SIZE.MAX.Z:35.27
;END_OF_HEADER
;Generated with Cura_SteamEngine 3.5.1
T0
M82 ;absolute extrusion mode

G92 E0
M109 S210
G0 F15000 X9 Y6 Z2
G280
G1 F1500 E-6.5
;LAYER_COUNT:177
;LAYER:0
M107
M204 S625
M205 X6 Y6
G0 F4363.6 X73.016 Y96.395 Z0.27
M204 S500
M205 X5 Y5
;TYPE:SKIRT
G1 F1500 E0
G1 F960 X73.663 Y96.028 E0.01322
G1 X74.345 Y95.731 E0.02645
G1 X75.056 Y95.51 E0.03968
G1 X75.786 Y95.366 E0.05291
G1 X76.758 Y95.298 E0.07023
G1 X87.286 Y95.298 E0.25737
G1 X87.916 Y95.332 E0.26859
G1 X87.916 Y92.103 E0.32599
G1 X87.956 Y91.36 E0.33921
G1 X88.075 Y90.625 E0.35245
G1 X88.273 Y89.907 E0.36569
G1 X88.546 Y89.215 E0.37891
G1 X88.892 Y88.556 E0.39214
G1 X89.307 Y87.938 E0.40538
G1 X89.946 Y87.203 E0.42269
G1 X90.069 Y87.08 E0.42578
G1 X90.623 Y86.582 E0.43902
G1 X91.227 Y86.147 E0.45225
G1 X91.874 Y85.78 E0.46548
G1 X92.556 Y85.483 E0.4787
G1 X93.267 Y85.262 E0.49193
G1 X93.997 Y85.118 E0.50516
G1 X94.969 Y85.05 E0.52248
G1 X99.753 Y85.05 E0.60752
G1 X100.496 Y85.09 E0.62075
G1 X101.231 Y85.209 E0.63398
G1 X101.949 Y85.407 E0.64722
G1 X102.641 Y85.68 E0.66045
G1 X103.3 Y86.026 E0.67368
G1 X103.918 Y86.441 E0.68691
G1 X104.653 Y87.08 E0.70422
G1 X104.776 Y87.203 E0.70731
G1 X105.274 Y87.757 E0.72056
G1 X105.709 Y88.361 E0.73379
G1 X106.076 Y89.008 E0.74701
G1 X106.373 Y89.69 E0.76023
G1 X106.594 Y90.401 E0.77347
G1 X106.738 Y91.131 E0.7867
G1 X106.768 Y91.563 E0.79439
G1 X141.766 Y91.563 E1.41652
G1 X141.777 Y91.36 E1.42013
G1 X141.896 Y90.625 E1.43337
G1 X142.094 Y89.907 E1.44661
G1 X142.367 Y89.215 E1.45983
G1 X142.713 Y88.556 E1.47306
G1 X143.128 Y87.938 E1.48629
G1 X143.767 Y87.203 E1.50361
G1 X143.89 Y87.08 E1.5067
G1 X144.444 Y86.582 E1.51994
G1 X145.048 Y86.147 E1.53317
G1 X145.695 Y85.78 E1.54639
G1 X146.377 Y85.483 E1.55962
G1 X147.088 Y85.262 E1.57285
G1 X147.818 Y85.118 E1.58608
G1 X148.79 Y85.05 E1.6034
G1 X156.139 Y85.05 E1.73403
G1 X156.882 Y85.09 E1.74726
G1 X157.617 Y85.209 E1.7605
G1 X158.335 Y85.407 E1.77374
G1 X159.027 Y85.68 E1.78696
G1 X159.686 Y86.026 E1.80019
G1 X160.304 Y86.441 E1.81342
G1 X161.039 Y87.08 E1.83074
G1 X161.162 Y87.203 E1.83383
G1 X161.66 Y87.757 E1.84707
G1 X162.095 Y88.361 E1.8603
G1 X162.462 Y89.008 E1.87352
G1 X162.759 Y89.69 E1.88675
G1 X162.98 Y90.401 E1.89998
G1 X163.124 Y91.131 E1.91321
G1 X163.192 Y92.103 E1.93053
G1 X163.192 Y125.029 E2.51582
G1 X163.152 Y125.772 E2.52905
G1 X163.033 Y126.507 E2.54228
G1 X162.835 Y127.225 E2.55552
G1 X162.562 Y127.917 E2.56875
G1 X162.216 Y128.576 E2.58198
G1 X161.801 Y129.194 E2.59521
G1 X161.162 Y129.929 E2.61252
G1 X161.039 Y130.052 E2.61561
G1 X160.485 Y130.55 E2.62886
G1 X159.881 Y130.985 E2.64209
G1 X159.234 Y131.352 E2.65531
G1 X158.552 Y131.649 E2.66853
G1 X157.841 Y131.87 E2.68177
G1 X157.111 Y132.014 E2.69499
G1 X156.139 Y132.082 E2.71231
G1 X94.969 Y132.082 E3.79967
G1 X94.226 Y132.042 E3.8129
G1 X93.491 Y131.923 E3.82613
G1 X92.773 Y131.725 E3.83937
G1 X92.081 Y131.452 E3.8526
G1 X91.422 Y131.106 E3.86583
G1 X90.804 Y130.691 E3.87906
G1 X90.069 Y130.052 E3.89637
G1 X89.946 Y129.929 E3.89946
G1 X89.448 Y129.375 E3.91271
G1 X89.013 Y128.771 E3.92594
G1 X88.646 Y128.124 E3.93916
G1 X88.349 Y127.442 E3.95238
G1 X88.128 Y126.731 E3.96562
G1 X87.984 Y126.001 E3.97884
G1 X87.916 Y125.029 E3.99616
G1 X87.916 Y119.676 E4.09132
G1 X87.746 Y119.696 E4.09436
G1 X87.284 Y119.711 E4.10258
G1 X76.773 Y119.708 E4.28942
G1 X76.03 Y119.668 E4.30265
G1 X75.295 Y119.548 E4.31589
G1 X74.578 Y119.35 E4.32911
G1 X73.885 Y119.077 E4.34235
G1 X73.227 Y118.731 E4.35557
G1 X72.609 Y118.316 E4.3688
G1 X71.854 Y117.658 E4.3866
G1 X71.617 Y117.419 E4.39258
G1 X71.122 Y116.863 E4.40582
G1 X70.69 Y116.257 E4.41905
G1 X70.325 Y115.608 E4.43228
G1 X70.031 Y114.924 E4.44552
G1 X69.813 Y114.213 E4.45874
G1 X69.672 Y113.482 E4.47197
G1 X69.608 Y112.539 E4.48877
G1 X69.608 Y102.448 E4.66815
G1 X69.648 Y101.705 E4.68137
G1 X69.767 Y100.97 E4.69461
G1 X69.965 Y100.252 E4.70785
G1 X70.238 Y99.56 E4.72107
G1 X70.584 Y98.901 E4.7343
G1 X70.999 Y98.283 E4.74754
G1 X71.638 Y97.548 E4.76485
G1 X71.858 Y97.328 E4.77038
G1 X72.412 Y96.83 E4.78362
G1 X73.016 Y96.395 E4.79685
M204 S625
M205 X6 Y6
G0 F4363.6 X73.28 Y96.725
M204 S500
M205 X5 Y5
G1 F960 X73.91 Y96.374 E4.80967
G1 X74.575 Y96.095 E4.82249
G1 X75.267 Y95.891 E4.83532
G1 X75.977 Y95.765 E4.84813
G1 X76.758 Y95.718 E4.86204
G1 X87.286 Y95.718 E5.04919
G1 X88.006 Y95.758 E5.06201
G1 X88.336 Y95.813 E5.06795
G1 X88.336 Y92.103 E5.1339
G1 X88.376 Y91.383 E5.14672
G1 X88.495 Y90.671 E5.15955
G1 X88.693 Y89.977 E5.17238
G1 X88.966 Y89.31 E5.18519
G1 X89.311 Y88.676 E5.19802
G1 X89.724 Y88.085 E5.21084
G1 X90.243 Y87.5 E5.22474
G1 X90.366 Y87.377 E5.22783
G1 X90.903 Y86.896 E5.24065
G1 X91.491 Y86.477 E5.25348
G1 X92.121 Y86.126 E5.2663
G1 X92.786 Y85.847 E5.27912
G1 X93.478 Y85.643 E5.29195
G1 X94.188 Y85.517 E5.30476
G1 X94.969 Y85.47 E5.31867
G1 X99.753 Y85.47 E5.40371
G1 X100.473 Y85.51 E5.41653
G1 X101.185 Y85.629 E5.42936
G1 X101.879 Y85.827 E5.44219
G1 X102.546 Y86.1 E5.455
G1 X103.18 Y86.445 E5.46783
G1 X103.771 Y86.858 E5.48065
G1 X104.356 Y87.377 E5.49455
G1 X104.479 Y87.5 E5.49764
G1 X104.96 Y88.037 E5.51046
G1 X105.379 Y88.625 E5.52329
G1 X105.73 Y89.255 E5.53611
G1 X106.009 Y89.92 E5.54893
G1 X106.213 Y90.612 E5.56176
G1 X106.339 Y91.322 E5.57458
G1 X106.379 Y91.983 E5.58635
G1 X142.164 Y91.983 E6.22246
G1 X142.197 Y91.383 E6.23314
G1 X142.316 Y90.671 E6.24597
G1 X142.514 Y89.977 E6.2588
G1 X142.787 Y89.31 E6.27161
G1 X143.132 Y88.676 E6.28444
G1 X143.545 Y88.085 E6.29726
G1 X144.064 Y87.5 E6.31116
G1 X144.187 Y87.377 E6.31425
G1 X144.724 Y86.896 E6.32707
G1 X145.312 Y86.477 E6.3399
G1 X145.942 Y86.126 E6.35272
G1 X146.607 Y85.847 E6.36554
G1 X147.299 Y85.643 E6.37837
G1 X148.009 Y85.517 E6.39119
G1 X148.79 Y85.47 E6.40509
G1 X156.139 Y85.47 E6.53573
G1 X156.859 Y85.51 E6.54855
G1 X157.571 Y85.629 E6.56138
G1 X158.265 Y85.827 E6.57421
G1 X158.932 Y86.1 E6.58702
G1 X159.566 Y86.445 E6.59985
G1 X160.157 Y86.858 E6.61267
G1 X160.742 Y87.377 E6.62657
G1 X160.865 Y87.5 E6.62966
G1 X161.346 Y88.037 E6.64248
G1 X161.765 Y88.625 E6.65531
G1 X162.116 Y89.255 E6.66813
G1 X162.395 Y89.92 E6.68095
G1 X162.599 Y90.612 E6.69377
G1 X162.725 Y91.322 E6.70659
G1 X162.772 Y92.103 E6.7205
G1 X162.772 Y125.029 E7.30579
G1 X162.732 Y125.749 E7.31861
G1 X162.613 Y126.461 E7.33144
G1 X162.415 Y127.155 E7.34427
G1 X162.142 Y127.822 E7.35708
G1 X161.797 Y128.456 E7.36991
G1 X161.384 Y129.047 E7.38273
G1 X160.865 Y129.632 E7.39663
G1 X160.742 Y129.755 E7.39972
G1 X160.205 Y130.236 E7.41254
G1 X159.617 Y130.655 E7.42537
G1 X158.987 Y131.006 E7.43819
G1 X158.322 Y131.285 E7.45101
G1 X157.63 Y131.489 E7.46384
G1 X156.92 Y131.615 E7.47665
G1 X156.139 Y131.662 E7.49056
G1 X94.969 Y131.662 E8.57792
G1 X94.249 Y131.622 E8.59074
G1 X93.537 Y131.503 E8.60357
G1 X92.843 Y131.305 E8.6164
G1 X92.176 Y131.032 E8.62921
G1 X91.542 Y130.687 E8.64204
G1 X90.951 Y130.274 E8.65486
G1 X90.366 Y129.755 E8.66876
G1 X90.243 Y129.632 E8.67185
G1 X89.762 Y129.095 E8.68466
G1 X89.343 Y128.507 E8.6975
G1 X88.992 Y127.877 E8.71032
G1 X88.713 Y127.212 E8.72314
G1 X88.509 Y126.52 E8.73596
G1 X88.383 Y125.81 E8.74878
G1 X88.336 Y125.029 E8.76269
G1 X88.336 Y119.197 E8.86636
G1 X88.127 Y119.236 E8.87014
G1 X87.284 Y119.291 E8.88515
G1 X76.773 Y119.288 E9.072
G1 X76.053 Y119.248 E9.08482
G1 X75.341 Y119.128 E9.09765
G1 X74.648 Y118.931 E9.11046
G1 X73.98 Y118.657 E9.12329
G1 X73.347 Y118.312 E9.13611
G1 X72.755 Y117.899 E9.14894
G1 X72.152 Y117.362 E9.16329
G1 X71.915 Y117.123 E9.16928
G1 X71.437 Y116.583 E9.18209
G1 X71.02 Y115.994 E9.19492
G1 X70.672 Y115.362 E9.20775
G1 X70.396 Y114.696 E9.22056
G1 X70.195 Y114.003 E9.23339
G1 X70.072 Y113.292 E9.24622
G1 X70.028 Y112.539 E9.25962
G1 X70.028 Y102.448 E9.439
G1 X70.068 Y101.728 E9.45182
G1 X70.187 Y101.016 E9.46465
G1 X70.385 Y100.322 E9.47748
G1 X70.658 Y99.655 E9.49029
G1 X71.003 Y99.021 E9.50312
G1 X71.416 Y98.43 E9.51594
G1 X71.935 Y97.845 E9.52984
G1 X72.155 Y97.625 E9.53537
G1 X72.692 Y97.144 E9.54819
G1 X73.28 Y96.725 E9.56102
M204 S625
M205 X6 Y6
G0 F4363.6 X73.543 Y97.056
M204 S500
M205 X5 Y5
G1 F960 X74.156 Y96.722 E9.57343
G1 X74.803 Y96.46 E9.58584
G1 X75.475 Y96.275 E9.59823
G1 X76.164 Y96.167 E9.61063
G1 X76.758 Y96.138 E9.6212
G1 X87.286 Y96.138 E9.80834
G1 X87.983 Y96.178 E9.82075
G1 X88.67 Y96.297 E9.83315
G1 X88.756 Y96.322 E9.83474
G1 X88.756 Y92.103 E9.90974
G1 X88.796 Y91.406 E9.92215
G1 X88.915 Y90.719 E9.93454
G1 X89.113 Y90.05 E9.94694
G1 X89.385 Y89.407 E9.95935
G1 X89.729 Y88.801 E9.97174
G1 X90.141 Y88.237 E9.98415
G1 X90.54 Y87.797 E9.99471
G1 X90.663 Y87.674 E9.99781
G1 X91.184 Y87.209 E10.01022
G1 X91.754 Y86.808 E10.02261
G1 X92.367 Y86.474 E10.03502
G1 X93.014 Y86.212 E10.04742
G1 X93.686 Y86.027 E10.05981
G1 X94.375 Y85.919 E10.07221
G1 X94.969 Y85.89 E10.08278
G1 X99.753 Y85.89 E10.16782
G1 X100.45 Y85.93 E10.18023
G1 X101.137 Y86.049 E10.19263
G1 X101.806 Y86.247 E10.20503
G1 X102.449 Y86.519 E10.21744
G1 X103.055 Y86.863 E10.22983
G1 X103.619 Y87.275 E10.24224
G1 X104.059 Y87.674 E10.2528
G1 X104.182 Y87.797 E10.25589
G1 X104.647 Y88.318 E10.26831
G1 X105.048 Y88.888 E10.2807
G1 X105.382 Y89.501 E10.2931
G1 X105.644 Y90.148 E10.30551
G1 X105.829 Y90.82 E10.3179
G1 X105.937 Y91.509 E10.3303
G1 X105.966 Y92.103 E10.34087
G1 X105.966 Y92.403 E10.3462
G1 X142.577 Y92.403 E10.997
G1 X142.577 Y92.103 E11.00233
G1 X142.617 Y91.406 E11.01474
G1 X142.736 Y90.719 E11.02714
G1 X142.934 Y90.05 E11.03954
G1 X143.206 Y89.407 E11.05195
G1 X143.55 Y88.801 E11.06434
G1 X143.962 Y88.237 E11.07675
G1 X144.361 Y87.797 E11.08731
G1 X144.484 Y87.674 E11.0904
G1 X145.005 Y87.209 E11.10282
G1 X145.575 Y86.808 E11.11521
G1 X146.188 Y86.474 E11.12761
G1 X146.835 Y86.212 E11.14002
G1 X147.507 Y86.027 E11.15241
G1 X148.196 Y85.919 E11.16481
G1 X148.79 Y85.89 E11.17538
G1 X156.139 Y85.89 E11.30602
G1 X156.836 Y85.93 E11.31843
G1 X157.523 Y86.049 E11.33082
G1 X158.192 Y86.247 E11.34322
G1 X158.835 Y86.519 E11.35563
G1 X159.441 Y86.863 E11.36802
G1 X160.005 Y87.275 E11.38044
G1 X160.445 Y87.674 E11.39099
G1 X160.568 Y87.797 E11.39409
G1 X161.033 Y88.318 E11.4065
G1 X161.434 Y88.888 E11.41889
G1 X161.768 Y89.501 E11.4313
G1 X162.03 Y90.148 E11.44371
G1 X162.215 Y90.82 E11.4561
G1 X162.323 Y91.509 E11.46849
G1 X162.352 Y92.103 E11.47906
G1 X162.352 Y125.029 E12.06436
G1 X162.312 Y125.726 E12.07677
G1 X162.193 Y126.413 E12.08916
G1 X161.995 Y127.082 E12.10156
G1 X161.723 Y127.725 E12.11397
G1 X161.379 Y128.331 E12.12636
G1 X160.967 Y128.895 E12.13878
G1 X160.568 Y129.335 E12.14933
G1 X160.445 Y129.458 E12.15243
G1 X159.924 Y129.923 E12.16484
G1 X159.354 Y130.324 E12.17723
G1 X158.741 Y130.658 E12.18964
G1 X158.094 Y130.92 E12.20205
G1 X157.422 Y131.105 E12.21444
G1 X156.733 Y131.213 E12.22683
G1 X156.139 Y131.242 E12.2374
G1 X94.969 Y131.242 E13.32476
G1 X94.272 Y131.202 E13.33717
G1 X93.585 Y131.083 E13.34956
G1 X92.916 Y130.885 E13.36197
G1 X92.273 Y130.613 E13.37438
G1 X91.667 Y130.269 E13.38676
G1 X91.103 Y129.857 E13.39918
G1 X90.663 Y129.458 E13.40974
G1 X90.54 Y129.335 E13.41283
G1 X90.075 Y128.814 E13.42524
G1 X89.674 Y128.244 E13.43763
G1 X89.34 Y127.631 E13.45004
G1 X89.078 Y126.984 E13.46245
G1 X88.893 Y126.312 E13.47484
G1 X88.785 Y125.623 E13.48724
G1 X88.756 Y125.029 E13.49781
G1 X88.756 Y118.681 E13.61065
G1 X88.467 Y118.755 E13.61595
G1 X87.776 Y118.851 E13.62835
G1 X87.284 Y118.871 E13.63711
G1 X76.773 Y118.868 E13.82395
G1 X76.077 Y118.828 E13.83634
G1 X75.389 Y118.708 E13.84876
G1 X74.72 Y118.511 E13.86115
G1 X74.078 Y118.238 E13.87356
G1 X73.471 Y117.894 E13.88596
G1 X72.908 Y117.482 E13.89836
G1 X72.451 Y117.066 E13.90934
G1 X72.214 Y116.827 E13.91533
G1 X71.752 Y116.304 E13.92773
G1 X71.352 Y115.732 E13.94014
G1 X71.021 Y115.118 E13.95254
G1 X70.762 Y114.47 E13.96494
G1 X70.579 Y113.797 E13.97734
G1 X70.475 Y113.107 E13.98975
G1 X70.448 Y112.539 E13.99985
G1 X70.448 Y102.448 E14.17923
G1 X70.488 Y101.751 E14.19164
G1 X70.607 Y101.064 E14.20404
G1 X70.805 Y100.395 E14.21644
G1 X71.077 Y99.752 E14.22885
G1 X71.421 Y99.146 E14.24124
G1 X71.833 Y98.582 E14.25365
G1 X72.232 Y98.142 E14.26421
G1 X72.452 Y97.922 E14.26974
G1 X72.973 Y97.457 E14.28215
G1 X73.543 Y97.056 E14.29454
M204 S625
M205 X6 Y6
G0 F4363.6 X73.805 Y97.388
M204 S500
M205 X5 Y5
G1 F960 X74.4 Y97.072 E14.30652
G1 X75.027 Y96.829 E14.31847
G1 X75.679 Y96.662 E14.33043
G1 X76.347 Y96.573 E14.34241
G1 X76.758 Y96.558 E14.34973
G1 X87.286 Y96.558 E14.53687
G1 X87.958 Y96.598 E14.54884
G1 X88.621 Y96.717 E14.56081
G1 X89.176 Y96.887 E14.57113
G1 X89.176 Y92.103 E14.65617
G1 X89.216 Y91.431 E14.66814
G1 X89.335 Y90.768 E14.68011
G1 X89.532 Y90.125 E14.69206
G1 X89.804 Y89.509 E14.70403
G1 X90.147 Y88.93 E14.716
G1 X90.556 Y88.395 E14.72797
G1 X90.837 Y88.094 E14.73529
G1 X90.96 Y87.971 E14.73838
G1 X91.463 Y87.524 E14.75034
G1 X92.016 Y87.14 E14.76231
G1 X92.611 Y86.824 E14.77428
G1 X93.238 Y86.581 E14.78624
G1 X93.89 Y86.414 E14.7982
G1 X94.558 Y86.325 E14.81018
G1 X94.969 Y86.31 E14.81749
G1 X99.753 Y86.31 E14.90253
G1 X100.425 Y86.35 E14.9145
G1 X101.088 Y86.469 E14.92647
G1 X101.731 Y86.666 E14.93843
G1 X102.347 Y86.938 E14.9504
G1 X102.926 Y87.281 E14.96236
G1 X103.461 Y87.69 E14.97433
G1 X103.762 Y87.971 E14.98165
G1 X103.885 Y88.094 E14.98474
G1 X104.332 Y88.597 E14.9967
G1 X104.716 Y89.15 E15.00867
G1 X105.032 Y89.745 E15.02065
G1 X105.275 Y90.372 E15.0326
G1 X105.442 Y91.024 E15.04457
G1 X105.531 Y91.692 E15.05654
G1 X105.546 Y92.103 E15.06386
G1 X105.546 Y92.823 E15.07665
G1 X142.997 Y92.823 E15.74238
G1 X142.997 Y92.103 E15.75518
G1 X143.037 Y91.431 E15.76715
G1 X143.156 Y90.768 E15.77912
G1 X143.353 Y90.125 E15.79108
G1 X143.625 Y89.509 E15.80305
G1 X143.968 Y88.93 E15.81501
G1 X144.377 Y88.395 E15.82698
G1 X144.658 Y88.094 E15.8343
G1 X144.781 Y87.971 E15.83739
G1 X145.284 Y87.524 E15.84935
G1 X145.837 Y87.14 E15.86132
G1 X146.432 Y86.824 E15.8733
G1 X147.059 Y86.581 E15.88525
G1 X147.711 Y86.414 E15.89721
G1 X148.379 Y86.325 E15.90919
G1 X148.79 Y86.31 E15.9165
G1 X156.139 Y86.31 E16.04714
G1 X156.811 Y86.35 E16.05911
G1 X157.474 Y86.469 E16.07108
G1 X158.117 Y86.666 E16.08303
G1 X158.733 Y86.938 E16.095
G1 X159.312 Y87.281 E16.10697
G1 X159.847 Y87.69 E16.11894
G1 X160.148 Y87.971 E16.12626
G1 X160.271 Y88.094 E16.12935
G1 X160.718 Y88.597 E16.14131
G1 X161.102 Y89.15 E16.15328
G1 X161.418 Y89.745 E16.16525
G1 X161.661 Y90.372 E16.17721
G1 X161.828 Y91.024 E16.18917
G1 X161.917 Y91.692 E16.20115
G1 X161.932 Y92.103 E16.20846
G1 X161.932 Y125.029 E16.79375
G1 X161.892 Y125.701 E16.80572
G1 X161.773 Y126.364 E16.81769
G1 X161.576 Y127.007 E16.82965
G1 X161.304 Y127.623 E16.84162
G1 X160.961 Y128.202 E16.85358
G1 X160.552 Y128.737 E16.86555
G1 X160.271 Y129.038 E16.87287
G1 X160.148 Y129.161 E16.87596
G1 X159.645 Y129.608 E16.88793
G1 X159.092 Y129.992 E16.89989
G1 X158.497 Y130.308 E16.91187
G1 X157.87 Y130.551 E16.92382
G1 X157.218 Y130.718 E16.93579
G1 X156.55 Y130.807 E16.94777
G1 X156.139 Y130.822 E16.95508
G1 X94.969 Y130.822 E18.04243
G1 X94.297 Y130.782 E18.0544
G1 X93.634 Y130.663 E18.06637
G1 X92.991 Y130.466 E18.07833
G1 X92.375 Y130.194 E18.0903
G1 X91.796 Y129.851 E18.10226
G1 X91.261 Y129.442 E18.11423
G1 X90.96 Y129.161 E18.12155
G1 X90.837 Y129.038 E18.12464
G1 X90.39 Y128.535 E18.13661
G1 X90.006 Y127.982 E18.14857
G1 X89.69 Y127.387 E18.16055
G1 X89.447 Y126.76 E18.1725
G1 X89.28 Y126.108 E18.18447
G1 X89.191 Y125.44 E18.19645
G1 X89.176 Y125.029 E18.20376
G1 X89.176 Y118.117 E18.32662
