;START_OF_HEADER
;HEADER_VERSION:0.1
;FLAVOR:Griffin
;GENERATOR.NAME:Cura_SteamEngine
;GENERATOR.VERSION:3.5.1
;GENERATOR.BUILD_DATE:2018-10-16
;TARGET_MACHINE.NAME:Ultimaker 3
;EXTRUDER_TRAIN.0.INITIAL_TEMPERATURE:210
;EXTRUDER_TRAIN.0.MATERIAL.VOLUME_USED:16777
;EXTRUDER_TRAIN.0.MATERIAL.GUID:506c9f0d-e3aa-4bd4-b2d2-23e2425b1aa9
;EXTRUDER_TRAIN.0.NOZZLE.DIAMETER:0.4
;EXTRUDER_TRAIN.0.NOZZLE.NAME:AA 0.4
;BUILD_PLATE.TYPE:glass
;BUILD_PLATE.INITIAL_TEMPERATURE:60
;PRINT.TIME:7769
;PRINT.SIZE.MIN.X:9
;PRINT.SIZE.MIN.Y:6
;PRINT.SIZE.MIN.Z:0.27
;PRINT.SIZE.MAX.X:163.192
;PRINT.SIZE.MAX.Y:132.202
;PRINT.SIZE.MAX.Z:35.47
;END_OF_HEADER
;Generated with Cura_SteamEngine 3.5.1
T0
M82 ;absolute extrusion mode

G92 E0
M109 S210
G0 F15000 X9 Y6 Z2
G280
G1 F1500 E-6.5
;LAYER_COUNT:178
;LAYER:0
M107
M204 S625
M205 X6 Y6
G0 F4363.6 X73.016 Y96.596 Z0.27
M204 S500
M205 X5 Y5
;TYPE:SKIRT
G1 F1500 E0
G1 F960 X73.663 Y96.229 E0.01322
G1 X74.345 Y95.932 E0.02645
G1 X75.056 Y95.711 E0.03968
G1 X75.786 Y95.567 E0.05291
G1 X76.758 Y95.499 E0.07023
G1 X87.286 Y95.499 E0.25737
G1 X87.916 Y95.533 E0.26859
G1 X87.916 Y91.984 E0.33168
G1 X87.956 Y91.241 E0.3449
G1 X88.075 Y90.506 E0.35814
G1 X88.273 Y89.788 E0.37138
G1 X88.546 Y89.096 E0.3846
G1 X88.892 Y88.437 E0.39783
G1 X89.307 Y87.819 E0.41106
G1 X89.946 Y87.084 E0.42838
G1 X90.069 Y86.961 E0.43147
G1 X90.623 Y86.463 E0.44471
G1 X91.227 Y86.028 E0.45794
G1 X91.874 Y85.661 E0.47116
G1 X92.556 Y85.364 E0.48439
G1 X93.267 Y85.143 E0.49762
G1 X93.997 Y84.999 E0.51085
G1 X94.969 Y84.931 E0.52817
G1 X99.753 Y84.931 E0.61321
G1 X100.496 Y84.971 E0.62644
G1 X101.231 Y85.09 E0.63967
G1 X101.949 Y85.288 E0.65291
G1 X102.641 Y85.561 E0.66614
G1 X103.3 Y85.907 E0.67937
G1 X103.918 Y86.322 E0.6926
G1 X104.653 Y86.961 E0.70991
G1 X104.776 Y87.084 E0.713
G1 X105.274 Y87.638 E0.72625
G1 X105.709 Y88.242 E0.73948
G1 X106.076 Y88.889 E0.7527
G1 X106.373 Y89.571 E0.76592
G1 X106.594 Y90.282 E0.77916
G1 X106.738 Y91.012 E0.79238
G1 X106.785 Y91.683 E0.80434
G1 X141.753 Y91.683 E1.42593
G1 X141.777 Y91.241 E1.4338
G1 X141.896 Y90.506 E1.44703
G1 X142.094 Y89.788 E1.46027
G1 X142.367 Y89.096 E1.4735
G1 X142.713 Y88.437 E1.48673
G1 X143.128 Y87.819 E1.49996
G1 X143.767 Y87.084 E1.51727
G1 X143.89 Y86.961 E1.52037
G1 X144.444 Y86.463 E1.53361
G1 X145.048 Y86.028 E1.54684
G1 X145.695 Y85.661 E1.56006
G1 X146.377 Y85.364 E1.57328
G1 X147.088 Y85.143 E1.58652
G1 X147.818 Y84.999 E1.59975
G1 X148.79 Y84.931 E1.61707
G1 X156.139 Y84.931 E1.7477
G1 X156.882 Y84.971 E1.76093
G1 X157.617 Y85.09 E1.77416
G1 X158.335 Y85.288 E1.7874
G1 X159.027 Y85.561 E1.80063
G1 X159.686 Y85.907 E1.81386
G1 X160.304 Y86.322 E1.82709
G1 X161.039 Y86.961 E1.8444
G1 X161.162 Y87.084 E1.8475
G1 X161.66 Y87.638 E1.86074
G1 X162.095 Y88.242 E1.87397
G1 X162.462 Y88.889 E1.88719
G1 X162.759 Y89.571 E1.90041
G1 X162.98 Y90.282 E1.91365
G1 X163.124 Y91.012 E1.92688
G1 X163.192 Y91.984 E1.9442
G1 X163.192 Y125.122 E2.53326
G1 X163.152 Y125.865 E2.54648
G1 X163.033 Y126.6 E2.55972
G1 X162.835 Y127.318 E2.57296
G1 X162.562 Y128.01 E2.58618
G1 X162.216 Y128.669 E2.59941
G1 X161.801 Y129.287 E2.61265
G1 X161.162 Y130.022 E2.62996
G1 X161.039 Y130.145 E2.63305
G1 X160.485 Y130.643 E2.64629
G1 X159.881 Y131.078 E2.65952
G1 X159.234 Y131.445 E2.67275
G1 X158.552 Y131.742 E2.68597
G1 X157.841 Y131.963 E2.6992
G1 X157.111 Y132.107 E2.71243
G1 X156.142 Y132.175 E2.7297
G1 X94.972 Y132.202 E3.81705
G1 X94.229 Y132.162 E3.83028
G1 X93.494 Y132.043 E3.84352
G1 X92.776 Y131.846 E3.85675
G1 X92.084 Y131.573 E3.86998
G1 X91.425 Y131.227 E3.88321
G1 X90.807 Y130.813 E3.89643
G1 X90.069 Y130.172 E3.91381
G1 X89.946 Y130.049 E3.9169
G1 X89.448 Y129.495 E3.93014
G1 X89.013 Y128.891 E3.94337
G1 X88.646 Y128.244 E3.95659
G1 X88.349 Y127.562 E3.96982
G1 X88.128 Y126.851 E3.98305
G1 X87.984 Y126.121 E3.99628
G1 X87.916 Y125.149 E4.0136
G1 X87.916 Y119.806 E4.10858
G1 X87.746 Y119.826 E4.11162
G1 X87.286 Y119.841 E4.1198
G1 X86.71 Y119.841 E4.13004
G1 X86.292 Y119.96 E4.13776
G1 X85.559 Y120.086 E4.15098
G1 X84.649 Y120.132 E4.16718
G1 X81.649 Y120.087 E4.22052
G1 X80.907 Y120.036 E4.23374
G1 X80.174 Y119.906 E4.24697
G1 X79.952 Y119.841 E4.25108
G1 X76.758 Y119.841 E4.30786
G1 X76.015 Y119.801 E4.32108
G1 X75.28 Y119.682 E4.33432
G1 X74.562 Y119.484 E4.34756
G1 X73.87 Y119.211 E4.36078
G1 X73.211 Y118.865 E4.37401
G1 X72.593 Y118.45 E4.38725
G1 X71.858 Y117.811 E4.40456
G1 X71.638 Y117.591 E4.41009
G1 X71.14 Y117.037 E4.42333
G1 X70.705 Y116.433 E4.43656
G1 X70.338 Y115.786 E4.44979
G1 X70.041 Y115.104 E4.46301
G1 X69.82 Y114.393 E4.47624
G1 X69.676 Y113.663 E4.48947
G1 X69.608 Y112.691 E4.50679
G1 X69.608 Y102.649 E4.6853
G1 X69.648 Y101.906 E4.69852
G1 X69.767 Y101.171 E4.71176
G1 X69.965 Y100.453 E4.725
G1 X70.238 Y99.761 E4.73822
G1 X70.584 Y99.102 E4.75145
G1 X70.999 Y98.484 E4.76469
G1 X71.638 Y97.749 E4.782
G1 X71.858 Y97.529 E4.78753
G1 X72.412 Y97.031 E4.80077
G1 X73.016 Y96.596 E4.814
M204 S625
M205 X6 Y6
G0 F4363.6 X73.28 Y96.926
M204 S500
M205 X5 Y5
G1 F960 X73.91 Y96.575 E4.82682
G1 X74.575 Y96.296 E4.83964
G1 X75.267 Y96.092 E4.85247
G1 X75.977 Y95.966 E4.86528
G1 X76.758 Y95.919 E4.87919
G1 X87.286 Y95.919 E5.06634
G1 X88.006 Y95.959 E5.07916
G1 X88.336 Y96.014 E5.0851
G1 X88.336 Y91.984 E5.15674
G1 X88.376 Y91.264 E5.16956
G1 X88.495 Y90.552 E5.18239
G1 X88.693 Y89.858 E5.19522
G1 X88.966 Y89.191 E5.20803
G1 X89.311 Y88.557 E5.22086
G1 X89.724 Y87.966 E5.23368
G1 X90.243 Y87.381 E5.24758
G1 X90.366 Y87.258 E5.25067
G1 X90.903 Y86.777 E5.26349
G1 X91.491 Y86.358 E5.27632
G1 X92.121 Y86.007 E5.28914
G1 X92.786 Y85.728 E5.30196
G1 X93.478 Y85.524 E5.31478
G1 X94.188 Y85.398 E5.3276
G1 X94.969 Y85.351 E5.34151
G1 X99.753 Y85.351 E5.42655
G1 X100.473 Y85.391 E5.43937
G1 X101.185 Y85.51 E5.4522
G1 X101.879 Y85.708 E5.46503
G1 X102.546 Y85.981 E5.47784
G1 X103.18 Y86.326 E5.49067
G1 X103.771 Y86.739 E5.50349
G1 X104.356 Y87.258 E5.51739
G1 X104.479 Y87.381 E5.52048
G1 X104.96 Y87.918 E5.5333
G1 X105.379 Y88.506 E5.54613
G1 X105.73 Y89.136 E5.55895
G1 X106.009 Y89.801 E5.57177
G1 X106.213 Y90.493 E5.58459
G1 X106.339 Y91.203 E5.59741
G1 X106.386 Y91.984 E5.61132
G1 X106.386 Y92.103 E5.61344
G1 X142.157 Y92.103 E6.2493
G1 X142.157 Y91.984 E6.25142
G1 X142.197 Y91.264 E6.26423
G1 X142.316 Y90.552 E6.27707
G1 X142.514 Y89.858 E6.2899
G1 X142.787 Y89.191 E6.30271
G1 X143.132 Y88.557 E6.31554
G1 X143.545 Y87.966 E6.32835
G1 X144.064 Y87.381 E6.34226
G1 X144.187 Y87.258 E6.34535
G1 X144.724 Y86.777 E6.35816
G1 X145.312 Y86.358 E6.371
G1 X145.942 Y86.007 E6.38382
G1 X146.607 Y85.728 E6.39664
G1 X147.299 Y85.524 E6.40946
G1 X148.009 Y85.398 E6.42228
G1 X148.79 Y85.351 E6.43619
G1 X156.139 Y85.351 E6.56682
G1 X156.859 Y85.391 E6.57964
G1 X157.571 Y85.51 E6.59247
G1 X158.265 Y85.708 E6.6053
G1 X158.932 Y85.981 E6.61811
G1 X159.566 Y86.326 E6.63094
G1 X160.157 Y86.739 E6.64376
G1 X160.742 Y87.258 E6.65766
G1 X160.865 Y87.381 E6.66075
G1 X161.346 Y87.918 E6.67357
G1 X161.765 Y88.506 E6.6864
G1 X162.116 Y89.136 E6.69922
G1 X162.395 Y89.801 E6.71204
G1 X162.599 Y90.493 E6.72487
G1 X162.725 Y91.203 E6.73768
G1 X162.772 Y91.984 E6.75159
G1 X162.772 Y125.122 E7.34065
G1 X162.732 Y125.842 E7.35347
G1 X162.613 Y126.554 E7.3663
G1 X162.415 Y127.248 E7.37913
G1 X162.142 Y127.915 E7.39194
G1 X161.797 Y128.549 E7.40477
G1 X161.384 Y129.14 E7.41759
G1 X160.865 Y129.725 E7.43149
G1 X160.742 Y129.848 E7.43458
G1 X160.205 Y130.329 E7.4474
G1 X159.617 Y130.748 E7.46023
G1 X158.987 Y131.099 E7.47305
G1 X158.322 Y131.378 E7.48587
G1 X157.63 Y131.582 E7.4987
G1 X156.92 Y131.708 E7.51152
G1 X156.142 Y131.755 E7.52537
G1 X94.972 Y131.782 E8.61273
G1 X94.252 Y131.742 E8.62555
G1 X93.54 Y131.623 E8.63838
G1 X92.846 Y131.426 E8.6512
G1 X92.178 Y131.153 E8.66403
G1 X91.545 Y130.809 E8.67684
G1 X90.953 Y130.396 E8.68967
G1 X90.366 Y129.875 E8.70362
G1 X90.243 Y129.752 E8.70671
G1 X89.762 Y129.215 E8.71953
G1 X89.343 Y128.627 E8.73236
G1 X88.992 Y127.997 E8.74518
G1 X88.713 Y127.332 E8.758
G1 X88.509 Y126.64 E8.77082
G1 X88.383 Y125.93 E8.78364
G1 X88.336 Y125.149 E8.79755
G1 X88.336 Y119.327 E8.90104
G1 X88.127 Y119.366 E8.90482
G1 X87.286 Y119.421 E8.9198
G1 X86.664 Y119.421 E8.93086
G1 X86.069 Y119.579 E8.9418
G1 X85.355 Y119.685 E8.95463
G1 X84.655 Y119.712 E8.96709
G1 X81.655 Y119.667 E9.02042
G1 X80.936 Y119.616 E9.03323
G1 X80.226 Y119.486 E9.04606
G1 X80.009 Y119.421 E9.05009
G1 X76.758 Y119.421 E9.10788
G1 X76.038 Y119.381 E9.1207
G1 X75.326 Y119.262 E9.13353
G1 X74.632 Y119.064 E9.14636
G1 X73.965 Y118.791 E9.15917
G1 X73.331 Y118.446 E9.172
G1 X72.74 Y118.033 E9.18482
G1 X72.155 Y117.514 E9.19872
G1 X71.935 Y117.294 E9.20425
G1 X71.454 Y116.757 E9.21706
G1 X71.035 Y116.169 E9.2299
G1 X70.684 Y115.539 E9.24272
G1 X70.405 Y114.874 E9.25554
G1 X70.201 Y114.182 E9.26836
G1 X70.075 Y113.472 E9.28118
G1 X70.028 Y112.691 E9.29509
G1 X70.028 Y102.649 E9.4736
G1 X70.068 Y101.929 E9.48641
G1 X70.187 Y101.217 E9.49925
G1 X70.385 Y100.523 E9.51207
G1 X70.658 Y99.856 E9.52489
G1 X71.003 Y99.222 E9.53772
G1 X71.416 Y98.631 E9.55053
G1 X71.935 Y98.046 E9.56443
G1 X72.155 Y97.826 E9.56996
G1 X72.692 Y97.345 E9.58278
G1 X73.28 Y96.926 E9.59561
M204 S625
M205 X6 Y6
G0 F4363.6 X73.543 Y97.257
M204 S500
M205 X5 Y5
G1 F960 X74.156 Y96.923 E9.60802
G1 X74.803 Y96.661 E9.62043
G1 X75.475 Y96.476 E9.63282
G1 X76.164 Y96.368 E9.64522
G1 X76.758 Y96.339 E9.65579
G1 X87.286 Y96.339 E9.84294
G1 X87.983 Y96.379 E9.85535
G1 X88.67 Y96.498 E9.86774
G1 X88.756 Y96.523 E9.86933
G1 X88.756 Y91.984 E9.95002
G1 X88.796 Y91.287 E9.96243
G1 X88.915 Y90.6 E9.97482
G1 X89.113 Y89.931 E9.98722
G1 X89.385 Y89.288 E9.99963
G1 X89.729 Y88.682 E10.01202
G1 X90.141 Y88.118 E10.02444
G1 X90.54 Y87.678 E10.035
G1 X90.663 Y87.555 E10.03809
G1 X91.184 Y87.09 E10.0505
G1 X91.754 Y86.689 E10.06289
G1 X92.367 Y86.355 E10.0753
G1 X93.014 Y86.093 E10.08771
G1 X93.686 Y85.908 E10.1001
G1 X94.375 Y85.8 E10.11249
G1 X94.969 Y85.771 E10.12307
G1 X99.753 Y85.771 E10.20811
G1 X100.45 Y85.811 E10.22052
G1 X101.137 Y85.93 E10.23291
G1 X101.806 Y86.128 E10.24531
G1 X102.449 Y86.4 E10.25772
G1 X103.055 Y86.744 E10.27011
G1 X103.619 Y87.156 E10.28252
G1 X104.059 Y87.555 E10.29308
G1 X104.182 Y87.678 E10.29618
G1 X104.647 Y88.199 E10.30859
G1 X105.048 Y88.769 E10.32098
G1 X105.382 Y89.382 E10.33339
G1 X105.644 Y90.029 E10.34579
G1 X105.829 Y90.701 E10.35818
G1 X105.937 Y91.39 E10.37058
G1 X105.966 Y91.984 E10.38115
G1 X105.966 Y92.523 E10.39073
G1 X142.577 Y92.523 E11.04153
G1 X142.577 Y91.984 E11.05111
G1 X142.617 Y91.287 E11.06352
G1 X142.736 Y90.6 E11.07592
G1 X142.934 Y89.931 E11.08832
G1 X143.206 Y89.288 E11.10073
G1 X143.55 Y88.682 E11.11312
G1 X143.962 Y88.118 E11.12553
G1 X144.361 Y87.678 E11.13609
G1 X144.484 Y87.555 E11.13918
G1 X145.005 Y87.09 E11.1516
G1 X145.575 Y86.689 E11.16398
G1 X146.188 Y86.355 E11.17639
G1 X146.835 Y86.093 E11.1888
G1 X147.507 Y85.908 E11.20119
G1 X148.196 Y85.8 E11.21359
G1 X148.79 Y85.771 E11.22416
G1 X156.139 Y85.771 E11.3548
G1 X156.836 Y85.811 E11.36721
G1 X157.523 Y85.93 E11.3796
G1 X158.192 Y86.128 E11.392
G1 X158.835 Y86.4 E11.40441
G1 X159.441 Y86.744 E11.4168
G1 X160.005 Y87.156 E11.42921
G1 X160.445 Y87.555 E11.43977
G1 X160.568 Y87.678 E11.44287
G1 X161.033 Y88.199 E11.45528
G1 X161.434 Y88.769 E11.46767
G1 X161.768 Y89.382 E11.48008
G1 X162.03 Y90.029 E11.49248
G1 X162.215 Y90.701 E11.50487
G1 X162.323 Y91.39 E11.51727
G1 X162.352 Y91.984 E11.52784
G1 X162.352 Y125.122 E12.1169
G1 X162.312 Y125.819 E12.12931
G1 X162.193 Y126.506 E12.14171
G1 X161.995 Y127.175 E12.15411
G1 X161.723 Y127.818 E12.16652
G1 X161.379 Y128.424 E12.17891
G1 X160.967 Y128.988 E12.19132
G1 X160.568 Y129.428 E12.20188
G1 X160.445 Y129.551 E12.20497
G1 X159.924 Y130.016 E12.21739
G1 X159.354 Y130.417 E12.22978
G1 X158.741 Y130.751 E12.24218
G1 X158.094 Y131.013 E12.25459
G1 X157.422 Y131.198 E12.26698
G1 X156.733 Y131.306 E12.27938
G1 X156.142 Y131.335 E12.2899
G1 X94.972 Y131.362 E13.37725
G1 X94.275 Y131.322 E13.38966
G1 X93.588 Y131.203 E13.40206
G1 X92.918 Y131.006 E13.41447
G1 X92.276 Y130.734 E13.42687
G1 X91.669 Y130.39 E13.43927
G1 X91.105 Y129.979 E13.45167
G1 X90.663 Y129.578 E13.46228
G1 X90.54 Y129.455 E13.46538
G1 X90.075 Y128.934 E13.47779
G1 X89.674 Y128.364 E13.49018
G1 X89.34 Y127.751 E13.50259
G1 X89.078 Y127.104 E13.51499
G1 X88.893 Y126.432 E13.52738
G1 X88.785 Y125.743 E13.53978
G1 X88.756 Y125.149 E13.55035
G1 X88.756 Y118.811 E13.66302
G1 X88.467 Y118.885 E13.66832
G1 X87.776 Y118.981 E13.68072
G1 X87.286 Y119.001 E13.68944
G1 X86.603 Y119.001 E13.70158
G1 X86.527 Y119.029 E13.70302
G1 X85.849 Y119.194 E13.71542
G1 X85.156 Y119.28 E13.72784
G1 X84.662 Y119.292 E13.73662
G1 X81.662 Y119.247 E13.78995
G1 X80.966 Y119.197 E13.80236
G1 X80.28 Y119.067 E13.81477
G1 X80.068 Y119.001 E13.81872
G1 X76.758 Y119.001 E13.87756
G1 X76.061 Y118.961 E13.88997
G1 X75.374 Y118.842 E13.90236
G1 X74.705 Y118.644 E13.91476
G1 X74.062 Y118.372 E13.92717
G1 X73.456 Y118.028 E13.93956
G1 X72.892 Y117.616 E13.95197
G1 X72.452 Y117.217 E13.96253
G1 X72.232 Y116.997 E13.96806
G1 X71.767 Y116.476 E13.98048
G1 X71.366 Y115.906 E13.99287
G1 X71.032 Y115.293 E14.00528
G1 X70.77 Y114.646 E14.01768
G1 X70.585 Y113.974 E14.03007
G1 X70.477 Y113.285 E14.04247
G1 X70.448 Y112.691 E14.05304
G1 X70.448 Y102.649 E14.23155
G1 X70.488 Y101.952 E14.24396
G1 X70.607 Y101.265 E14.25635
G1 X70.805 Y100.596 E14.26875
G1 X71.077 Y99.953 E14.28116
G1 X71.421 Y99.347 E14.29355
G1 X71.833 Y98.783 E14.30597
G1 X72.232 Y98.343 E14.31653
G1 X72.452 Y98.123 E14.32206
G1 X72.973 Y97.658 E14.33447
G1 X73.543 Y97.257 E14.34686
M204 S625
M205 X6 Y6
G0 F4363.6 X73.805 Y97.589
M204 S500
M205 X5 Y5
G1 F960 X74.4 Y97.273 E14.35883
G1 X75.027 Y97.03 E14.37079
G1 X75.679 Y96.863 E14.38275
G1 X76.347 Y96.774 E14.39473
G1 X76.758 Y96.759 E14.40204
G1 X87.286 Y96.759 E14.58919
G1 X87.958 Y96.799 E14.60115
G1 X88.621 Y96.918 E14.61313
G1 X89.176 Y97.088 E14.62345
G1 X89.176 Y91.984 E14.71417
G1 X89.216 Y91.312 E14.72614
G1 X89.335 Y90.649 E14.73811
G1 X89.532 Y90.006 E14.75007
G1 X89.804 Y89.39 E14.76204
G1 X90.147 Y88.811 E14.774
G1 X90.556 Y88.276 E14.78597
G1 X90.837 Y87.975 E14.79329
G1 X90.96 Y87.852 E14.79638
G1 X91.463 Y87.405 E14.80835
G1 X92.016 Y87.021 E14.82031
G1 X92.611 Y86.705 E14.83229
G1 X93.238 Y86.462 E14.84424
G1 X93.89 Y86.295 E14.85621
G1 X94.558 Y86.206 E14.86819
G1 X94.969 Y86.191 E14.8755
G1 X99.753 Y86.191 E14.96054
G1 X100.425 Y86.231 E14.9725
G1 X101.088 Y86.35 E14.98448
G1 X101.731 Y86.547 E14.99643
G1 X102.347 Y86.819 E15.0084
G1 X102.926 Y87.162 E15.02036
G1 X103.461 Y87.571 E15.03234
G1 X103.762 Y87.852 E15.03966
G1 X103.885 Y87.975 E15.04275
G1 X104.332 Y88.478 E15.05471
G1 X104.716 Y89.031 E15.06668
G1 X105.032 Y89.626 E15.07865
G1 X105.275 Y90.253 E15.09061
G1 X105.442 Y90.905 E15.10257
G1 X105.531 Y91.573 E15.11455
G1 X105.546 Y91.984 E15.12186
G1 X105.546 Y92.943 E15.13891
G1 X142.997 Y92.943 E15.80464
G1 X142.997 Y91.984 E15.82168
G1 X143.037 Y91.312 E15.83365
G1 X143.156 Y90.649 E15.84562
G1 X143.353 Y90.006 E15.85758
G1 X143.625 Y89.39 E15.86955
G1 X143.968 Y88.811 E15.88151
G1 X144.377 Y88.276 E15.89348
G1 X144.658 Y87.975 E15.9008
G1 X144.781 Y87.852 E15.90389
G1 X145.284 Y87.405 E15.91585
G1 X145.837 Y87.021 E15.92782
G1 X146.432 Y86.705 E15.9398
G1 X147.059 Y86.462 E15.95175
G1 X147.711 Y86.295 E15.96372
G1 X148.379 Y86.206 E15.97569
G1 X148.79 Y86.191 E15.98301
G1 X156.139 Y86.191 E16.11364
G1 X156.811 Y86.231 E16.12561
G1 X157.474 Y86.35 E16.13758
G1 X158.117 Y86.547 E16.14954
G1 X158.733 Y86.819 E16.16151
G1 X159.312 Y87.162 E16.17347
G1 X159.847 Y87.571 E16.18544
G1 X160.148 Y87.852 E16.19276
G1 X160.271 Y87.975 E16.19585
G1 X160.718 Y88.478 E16.20781
G1 X161.102 Y89.031 E16.21978
G1 X161.418 Y89.626 E16.23176
G1 X161.661 Y90.253 E16.24371
G1 X161.828 Y90.905 E16.25567
G1 X161.917 Y91.573 E16.26765
G1 X161.932 Y91.984 E16.27496
G1 X161.932 Y125.122 E16.86402
G1 X161.892 Y125.794 E16.87599
G1 X161.773 Y126.457 E16.88796
G1 X161.576 Y127.1 E16.89992
G1 X161.304 Y127.716 E16.91189
