;START_OF_HEADER
;HEADER_VERSION:0.1
;FLAVOR:Griffin
;GENERATOR.NAME:Cura_SteamEngine
;GENERATOR.VERSION:3.5.1
;GENERATOR.BUILD_DATE:2018-10-16
;TARGET_MACHINE.NAME:Ultimaker 3
;EXTRUDER_TRAIN.0.INITIAL_TEMPERATURE:210
;EXTRUDER_TRAIN.0.MATERIAL.VOLUME_USED:16606
;EXTRUDER_TRAIN.0.MATERIAL.GUID:506c9f0d-e3aa-4bd4-b2d2-23e2425b1aa9
;EXTRUDER_TRAIN.0.NOZZLE.DIAMETER:0.4
;EXTRUDER_TRAIN.0.NOZZLE.NAME:AA 0.4
;BUILD_PLATE.TYPE:glass
;BUILD_PLATE.INITIAL_TEMPERATURE:60
;PRINT.TIME:7671
;PRINT.SIZE.MIN.X:9
;PRINT.SIZE.MIN.Y:6
;PRINT.SIZE.MIN.Z:0.27
;PRINT.SIZE.MAX.X:163.155
;PRINT.SIZE.MAX.Y:132.096
;PRINT.SIZE.MAX.Z:35.27
;END_OF_HEADER
;Generated with Cura_SteamEngine 3.5.1
T0
M82 ;absolute extrusion mode

G92 E0
M109 S210
G0 F15000 X9 Y6 Z2
G280
G1 F1500 E-6.5
;LAYER_COUNT:177
;LAYER:0
M107
M204 S625
M205 X6 Y6
G0 F4363.6 X72.752 Y86.553 Z0.27
M204 S500
M205 X5 Y5
;TYPE:SKIRT
G1 F1500 E0
G1 F960 X73.356 Y86.118 E0.01323
G1 X74.003 Y85.751 E0.02645
G1 X74.685 Y85.454 E0.03968
G1 X75.396 Y85.233 E0.05291
G1 X76.126 Y85.089 E0.06614
G1 X77.098 Y85.021 E0.08346
G1 X84.402 Y85.021 E0.21329
G1 X85.145 Y85.061 E0.22652
G1 X85.88 Y85.18 E0.23976
G1 X86.598 Y85.378 E0.253
G1 X87.29 Y85.651 E0.26622
G1 X87.949 Y85.997 E0.27945
G1 X88.567 Y86.412 E0.29268
G1 X89.302 Y87.051 E0.31
G1 X89.425 Y87.174 E0.31309
G1 X89.923 Y87.728 E0.32633
G1 X90.358 Y88.332 E0.33956
G1 X90.725 Y88.979 E0.35278
G1 X91.022 Y89.661 E0.36601
G1 X91.243 Y90.372 E0.37924
G1 X91.387 Y91.102 E0.39247
G1 X91.431 Y91.736 E0.40377
G1 X126.113 Y91.736 E1.02027
G1 X126.135 Y91.331 E1.02748
G1 X126.254 Y90.596 E1.04072
G1 X126.452 Y89.878 E1.05396
G1 X126.725 Y89.186 E1.06718
G1 X127.071 Y88.527 E1.08041
G1 X127.486 Y87.909 E1.09364
G1 X128.125 Y87.174 E1.11096
G1 X128.248 Y87.051 E1.11405
G1 X128.802 Y86.553 E1.12729
G1 X129.406 Y86.118 E1.14052
G1 X130.053 Y85.751 E1.15374
G1 X130.735 Y85.454 E1.16697
G1 X131.446 Y85.233 E1.1802
G1 X132.176 Y85.089 E1.19343
G1 X133.148 Y85.021 E1.21075
G1 X137.902 Y85.021 E1.29526
G1 X138.645 Y85.061 E1.30848
G1 X139.38 Y85.18 E1.32172
G1 X140.098 Y85.378 E1.33496
G1 X140.79 Y85.651 E1.34818
G1 X141.449 Y85.997 E1.36141
G1 X142.067 Y86.412 E1.37465
G1 X142.802 Y87.051 E1.39196
G1 X142.925 Y87.174 E1.39505
G1 X143.423 Y87.728 E1.40829
G1 X143.858 Y88.332 E1.42152
G1 X144.225 Y88.979 E1.43475
G1 X144.522 Y89.661 E1.44797
G1 X144.743 Y90.372 E1.4612
G1 X144.887 Y91.102 E1.47443
G1 X144.955 Y92.074 E1.49175
G1 X144.955 Y95.472 E1.55215
G1 X145.125 Y95.452 E1.5552
G1 X145.585 Y95.437 E1.56338
G1 X156.005 Y95.437 E1.7486
G1 X156.748 Y95.477 E1.76183
G1 X157.483 Y95.596 E1.77507
G1 X158.201 Y95.794 E1.7883
G1 X158.893 Y96.067 E1.80153
G1 X159.552 Y96.413 E1.81476
G1 X160.17 Y96.828 E1.82799
G1 X160.905 Y97.467 E1.8453
G1 X161.125 Y97.687 E1.85084
G1 X161.623 Y98.241 E1.86408
G1 X162.058 Y98.845 E1.87731
G1 X162.425 Y99.492 E1.89053
G1 X162.722 Y100.174 E1.90375
G1 X162.943 Y100.885 E1.91699
G1 X163.087 Y101.615 E1.93022
G1 X163.155 Y102.587 E1.94754
G1 X163.155 Y112.41 E2.12215
G1 X163.115 Y113.153 E2.13538
G1 X162.996 Y113.888 E2.14861
G1 X162.798 Y114.606 E2.16185
G1 X162.525 Y115.298 E2.17507
G1 X162.179 Y115.957 E2.18831
G1 X161.764 Y116.575 E2.20154
G1 X161.125 Y117.31 E2.21885
G1 X160.905 Y117.53 E2.22438
G1 X160.351 Y118.028 E2.23762
G1 X159.747 Y118.463 E2.25085
G1 X159.1 Y118.83 E2.26408
G1 X158.418 Y119.127 E2.2773
G1 X157.707 Y119.348 E2.29054
G1 X156.977 Y119.492 E2.30376
G1 X156.705 Y119.511 E2.30861
G1 X156.327 Y119.69 E2.31604
G1 X155.624 Y119.935 E2.32928
G1 X154.899 Y120.103 E2.34251
G1 X154.16 Y120.192 E2.35574
G1 X153.7 Y120.207 E2.36392
G1 X150.7 Y120.207 E2.41725
G1 X149.957 Y120.167 E2.43047
G1 X149.222 Y120.048 E2.44371
G1 X148.504 Y119.85 E2.45695
G1 X147.812 Y119.577 E2.47017
G1 X147.736 Y119.537 E2.4717
G1 X147.433 Y119.521 E2.47709
G1 X146.698 Y119.402 E2.49033
G1 X145.98 Y119.204 E2.50357
G1 X145.965 Y119.198 E2.50385
G1 X145.585 Y119.198 E2.51061
G1 X144.955 Y119.164 E2.52182
G1 X144.955 Y125.043 E2.62633
G1 X144.915 Y125.786 E2.63956
G1 X144.796 Y126.521 E2.65279
G1 X144.598 Y127.239 E2.66603
G1 X144.325 Y127.931 E2.67925
G1 X143.979 Y128.59 E2.69249
G1 X143.564 Y129.208 E2.70572
G1 X142.925 Y129.943 E2.72303
G1 X142.802 Y130.066 E2.72612
G1 X142.248 Y130.564 E2.73936
G1 X141.644 Y130.999 E2.7526
G1 X140.997 Y131.366 E2.76582
G1 X140.315 Y131.663 E2.77904
G1 X139.604 Y131.884 E2.79228
G1 X138.874 Y132.028 E2.8055
G1 X137.899 Y132.096 E2.82288
G1 X77.095 Y132.069 E3.90373
G1 X76.352 Y132.029 E3.91695
G1 X75.617 Y131.909 E3.93019
G1 X74.9 Y131.711 E3.94341
G1 X74.207 Y131.437 E3.95666
G1 X73.549 Y131.091 E3.96988
G1 X72.931 Y130.676 E3.98311
G1 X72.198 Y130.039 E4.00037
G1 X72.075 Y129.916 E4.00346
G1 X71.577 Y129.362 E4.01671
G1 X71.142 Y128.758 E4.02994
G1 X70.775 Y128.111 E4.04316
G1 X70.478 Y127.429 E4.05638
G1 X70.257 Y126.718 E4.06962
G1 X70.113 Y125.988 E4.08284
G1 X70.045 Y125.016 E4.10016
G1 X70.045 Y92.074 E4.68574
G1 X70.085 Y91.331 E4.69897
G1 X70.204 Y90.596 E4.7122
G1 X70.402 Y89.878 E4.72544
G1 X70.675 Y89.186 E4.73867
G1 X71.021 Y88.527 E4.7519
G1 X71.436 Y87.909 E4.76513
G1 X72.075 Y87.174 E4.78244
G1 X72.198 Y87.051 E4.78553
G1 X72.752 Y86.553 E4.79878
M204 S625
M205 X6 Y6
G0 F4363.6 X73.032 Y86.867
M204 S500
M205 X5 Y5
G1 F960 X73.62 Y86.448 E4.81161
G1 X74.25 Y86.097 E4.82443
G1 X74.915 Y85.818 E4.83725
G1 X75.607 Y85.614 E4.85007
G1 X76.317 Y85.488 E4.86289
G1 X77.098 Y85.441 E4.8768
G1 X84.402 Y85.441 E5.00664
G1 X85.122 Y85.481 E5.01945
G1 X85.834 Y85.6 E5.03229
G1 X86.528 Y85.798 E5.04512
G1 X87.195 Y86.071 E5.05793
G1 X87.829 Y86.416 E5.07076
G1 X88.42 Y86.829 E5.08357
G1 X89.005 Y87.348 E5.09748
G1 X89.128 Y87.471 E5.10057
G1 X89.609 Y88.008 E5.11338
G1 X90.028 Y88.596 E5.12622
G1 X90.379 Y89.226 E5.13904
G1 X90.658 Y89.891 E5.15186
G1 X90.862 Y90.583 E5.16468
G1 X90.988 Y91.293 E5.1775
G1 X91.035 Y92.074 E5.19141
G1 X91.035 Y92.156 E5.19286
G1 X126.515 Y92.156 E5.82356
G1 X126.515 Y92.074 E5.82501
G1 X126.555 Y91.354 E5.83783
G1 X126.674 Y90.642 E5.85066
G1 X126.872 Y89.948 E5.86349
G1 X127.145 Y89.281 E5.8763
G1 X127.49 Y88.647 E5.88913
G1 X127.903 Y88.056 E5.90195
G1 X128.422 Y87.471 E5.91585
G1 X128.545 Y87.348 E5.91894
G1 X129.082 Y86.867 E5.93176
G1 X129.67 Y86.448 E5.94459
G1 X130.3 Y86.097 E5.95741
G1 X130.965 Y85.818 E5.97023
G1 X131.657 Y85.614 E5.98306
G1 X132.367 Y85.488 E5.99588
G1 X133.148 Y85.441 E6.00978
G1 X137.902 Y85.441 E6.09429
G1 X138.622 Y85.481 E6.10711
G1 X139.334 Y85.6 E6.11994
G1 X140.028 Y85.798 E6.13277
G1 X140.695 Y86.071 E6.14558
G1 X141.329 Y86.416 E6.15841
G1 X141.92 Y86.829 E6.17123
G1 X142.505 Y87.348 E6.18513
G1 X142.628 Y87.471 E6.18822
G1 X143.109 Y88.008 E6.20104
G1 X143.528 Y88.596 E6.21387
G1 X143.879 Y89.226 E6.22669
G1 X144.158 Y89.891 E6.23951
G1 X144.362 Y90.583 E6.25234
G1 X144.488 Y91.293 E6.26515
G1 X144.535 Y92.074 E6.27906
G1 X144.535 Y95.951 E6.34798
G1 X144.744 Y95.912 E6.35176
G1 X145.585 Y95.857 E6.36674
G1 X156.005 Y95.857 E6.55197
G1 X156.725 Y95.897 E6.56478
G1 X157.437 Y96.016 E6.57762
G1 X158.131 Y96.214 E6.59044
G1 X158.798 Y96.487 E6.60326
G1 X159.432 Y96.832 E6.61609
G1 X160.023 Y97.245 E6.6289
G1 X160.608 Y97.764 E6.6428
G1 X160.828 Y97.984 E6.64834
G1 X161.309 Y98.521 E6.66115
G1 X161.728 Y99.109 E6.67398
G1 X162.079 Y99.739 E6.6868
G1 X162.358 Y100.404 E6.69962
G1 X162.562 Y101.096 E6.71245
G1 X162.688 Y101.806 E6.72527
G1 X162.735 Y102.587 E6.73917
G1 X162.735 Y112.41 E6.91379
G1 X162.695 Y113.13 E6.92661
G1 X162.576 Y113.842 E6.93944
G1 X162.378 Y114.536 E6.95227
G1 X162.105 Y115.203 E6.96508
G1 X161.76 Y115.837 E6.97791
G1 X161.347 Y116.428 E6.99073
G1 X160.828 Y117.013 E7.00463
G1 X160.608 Y117.233 E7.01016
G1 X160.071 Y117.714 E7.02297
G1 X159.483 Y118.133 E7.03581
G1 X158.853 Y118.484 E7.04863
G1 X158.188 Y118.763 E7.06145
G1 X157.496 Y118.967 E7.07427
G1 X156.786 Y119.093 E7.08709
G1 X156.602 Y119.104 E7.09037
G1 X155.94 Y119.39 E7.10318
G1 X155.25 Y119.6 E7.116
G1 X154.541 Y119.732 E7.12882
G1 X153.7 Y119.787 E7.14381
G1 X150.7 Y119.787 E7.19713
G1 X149.98 Y119.747 E7.20995
G1 X149.268 Y119.628 E7.22278
G1 X148.574 Y119.43 E7.23561
G1 X147.907 Y119.157 E7.24842
G1 X147.844 Y119.123 E7.2497
G1 X147.456 Y119.101 E7.25661
G1 X146.744 Y118.982 E7.26944
G1 X146.05 Y118.784 E7.28227
G1 X146.035 Y118.778 E7.28255
G1 X145.585 Y118.778 E7.29055
G1 X144.865 Y118.738 E7.30337
G1 X144.535 Y118.683 E7.30932
G1 X144.535 Y125.043 E7.42237
G1 X144.495 Y125.763 E7.43519
G1 X144.376 Y126.475 E7.44802
G1 X144.178 Y127.169 E7.46085
G1 X143.905 Y127.836 E7.47366
G1 X143.56 Y128.47 E7.48649
G1 X143.147 Y129.061 E7.49931
G1 X142.628 Y129.646 E7.51321
G1 X142.505 Y129.769 E7.5163
G1 X141.968 Y130.25 E7.52912
G1 X141.38 Y130.669 E7.54195
G1 X140.75 Y131.02 E7.55477
G1 X140.085 Y131.299 E7.56759
G1 X139.393 Y131.503 E7.58042
G1 X138.683 Y131.629 E7.59324
G1 X137.899 Y131.676 E7.6072
G1 X77.095 Y131.649 E8.68805
G1 X76.375 Y131.609 E8.70087
G1 X75.663 Y131.489 E8.7137
G1 X74.97 Y131.291 E8.72651
G1 X74.302 Y131.018 E8.73934
G1 X73.669 Y130.673 E8.75216
G1 X73.078 Y130.259 E8.76498
G1 X72.495 Y129.742 E8.77883
G1 X72.372 Y129.619 E8.78193
G1 X71.891 Y129.082 E8.79474
G1 X71.472 Y128.494 E8.80758
G1 X71.121 Y127.864 E8.82039
G1 X70.842 Y127.199 E8.83321
G1 X70.638 Y126.507 E8.84604
G1 X70.512 Y125.797 E8.85886
G1 X70.465 Y125.016 E8.87276
G1 X70.465 Y92.074 E9.45834
G1 X70.505 Y91.354 E9.47116
G1 X70.624 Y90.642 E9.48399
G1 X70.822 Y89.948 E9.49682
G1 X71.095 Y89.281 E9.50963
G1 X71.44 Y88.647 E9.52246
G1 X71.853 Y88.056 E9.53528
G1 X72.372 Y87.471 E9.54918
G1 X72.495 Y87.348 E9.55227
G1 X73.032 Y86.867 E9.56509
M204 S625
M205 X6 Y6
G0 F4363.6 X73.313 Y87.18
M204 S500
M205 X5 Y5
G1 F960 X73.883 Y86.779 E9.57748
G1 X74.496 Y86.445 E9.58988
G1 X75.143 Y86.183 E9.60229
G1 X75.815 Y85.998 E9.61468
G1 X76.504 Y85.89 E9.62708
G1 X77.098 Y85.861 E9.63765
G1 X84.402 Y85.861 E9.76749
G1 X85.099 Y85.901 E9.7799
G1 X85.786 Y86.02 E9.79229
G1 X86.455 Y86.218 E9.80469
G1 X87.098 Y86.49 E9.8171
G1 X87.704 Y86.834 E9.82949
G1 X88.268 Y87.246 E9.84191
G1 X88.708 Y87.645 E9.85247
G1 X88.831 Y87.768 E9.85556
G1 X89.296 Y88.289 E9.86797
G1 X89.697 Y88.859 E9.88036
G1 X90.031 Y89.472 E9.89277
G1 X90.293 Y90.119 E9.90518
G1 X90.478 Y90.791 E9.91757
G1 X90.586 Y91.48 E9.92996
G1 X90.615 Y92.074 E9.94054
G1 X90.615 Y92.576 E9.94946
G1 X126.935 Y92.576 E10.59508
G1 X126.935 Y92.074 E10.60401
G1 X126.975 Y91.377 E10.61642
G1 X127.094 Y90.69 E10.62881
G1 X127.292 Y90.021 E10.64121
G1 X127.564 Y89.378 E10.65362
G1 X127.908 Y88.772 E10.66601
G1 X128.32 Y88.208 E10.67843
G1 X128.719 Y87.768 E10.68898
G1 X128.842 Y87.645 E10.69208
G1 X129.363 Y87.18 E10.70449
G1 X129.933 Y86.779 E10.71688
G1 X130.546 Y86.445 E10.72929
G1 X131.193 Y86.183 E10.7417
G1 X131.865 Y85.998 E10.75408
G1 X132.554 Y85.89 E10.76648
G1 X133.148 Y85.861 E10.77705
G1 X137.902 Y85.861 E10.86156
G1 X138.599 Y85.901 E10.87397
G1 X139.286 Y86.02 E10.88636
G1 X139.955 Y86.218 E10.89877
G1 X140.598 Y86.49 E10.91118
G1 X141.204 Y86.834 E10.92356
G1 X141.768 Y87.246 E10.93598
G1 X142.208 Y87.645 E10.94654
G1 X142.331 Y87.768 E10.94963
G1 X142.796 Y88.289 E10.96204
G1 X143.197 Y88.859 E10.97443
G1 X143.531 Y89.472 E10.98684
G1 X143.793 Y90.119 E10.99925
G1 X143.978 Y90.791 E11.01164
G1 X144.086 Y91.48 E11.02404
G1 X144.115 Y92.074 E11.03461
G1 X144.115 Y96.467 E11.1127
G1 X144.404 Y96.393 E11.118
G1 X145.095 Y96.297 E11.1304
G1 X145.585 Y96.277 E11.13912
G1 X156.005 Y96.277 E11.32435
G1 X156.702 Y96.317 E11.33676
G1 X157.389 Y96.436 E11.34915
G1 X158.058 Y96.634 E11.36155
G1 X158.701 Y96.906 E11.37396
G1 X159.307 Y97.25 E11.38635
G1 X159.871 Y97.662 E11.39876
G1 X160.311 Y98.061 E11.40932
G1 X160.531 Y98.281 E11.41485
G1 X160.996 Y98.802 E11.42727
G1 X161.397 Y99.372 E11.43966
G1 X161.731 Y99.985 E11.45207
G1 X161.993 Y100.632 E11.46447
G1 X162.178 Y101.304 E11.47686
G1 X162.286 Y101.993 E11.48926
G1 X162.315 Y102.587 E11.49983
G1 X162.315 Y112.41 E11.67445
G1 X162.275 Y113.107 E11.68686
G1 X162.156 Y113.794 E11.69925
G1 X161.958 Y114.463 E11.71165
G1 X161.686 Y115.106 E11.72406
G1 X161.342 Y115.712 E11.73645
G1 X160.93 Y116.276 E11.74886
G1 X160.531 Y116.716 E11.75942
G1 X160.311 Y116.936 E11.76495
G1 X159.79 Y117.401 E11.77737
G1 X159.22 Y117.802 E11.78976
G1 X158.607 Y118.136 E11.80216
G1 X157.96 Y118.398 E11.81457
G1 X157.288 Y118.583 E11.82696
G1 X156.599 Y118.691 E11.83936
G1 X156.453 Y118.698 E11.84196
G1 X156.208 Y118.826 E11.84687
G1 X155.557 Y119.077 E11.85927
G1 X154.881 Y119.251 E11.87168
G1 X154.19 Y119.347 E11.88408
G1 X153.7 Y119.367 E11.8928
G1 X150.7 Y119.367 E11.94613
G1 X150.003 Y119.327 E11.95854
G1 X149.316 Y119.208 E11.97093
G1 X148.647 Y119.01 E11.98334
G1 X148.004 Y118.738 E11.99575
G1 X147.951 Y118.708 E11.99683
G1 X147.479 Y118.681 E12.00523
G1 X146.792 Y118.562 E12.01763
G1 X146.123 Y118.364 E12.03003
G1 X146.109 Y118.358 E12.0303
G1 X145.585 Y118.358 E12.03961
G1 X144.888 Y118.318 E12.05202
G1 X144.201 Y118.199 E12.06442
G1 X144.115 Y118.174 E12.06601
G1 X144.115 Y125.043 E12.18811
G1 X144.075 Y125.74 E12.20052
G1 X143.956 Y126.427 E12.21292
G1 X143.758 Y127.096 E12.22532
G1 X143.486 Y127.739 E12.23773
G1 X143.142 Y128.345 E12.25012
G1 X142.73 Y128.909 E12.26253
G1 X142.331 Y129.349 E12.27309
G1 X142.208 Y129.472 E12.27618
G1 X141.687 Y129.937 E12.2886
G1 X141.117 Y130.338 E12.30099
G1 X140.504 Y130.672 E12.31339
G1 X139.857 Y130.934 E12.3258
G1 X139.185 Y131.119 E12.33819
G1 X138.496 Y131.227 E12.35059
G1 X137.899 Y131.256 E12.36121
G1 X77.095 Y131.229 E13.44207
G1 X76.399 Y131.189 E13.45446
G1 X75.711 Y131.069 E13.46687
G1 X75.042 Y130.872 E13.47927
G1 X74.4 Y130.599 E13.49167
G1 X73.793 Y130.254 E13.50408
G1 X73.23 Y129.843 E13.51647
G1 X72.792 Y129.445 E13.52699
G1 X72.669 Y129.322 E13.53008
G1 X72.204 Y128.801 E13.5425
G1 X71.803 Y128.231 E13.55489
G1 X71.469 Y127.618 E13.5673
G1 X71.207 Y126.971 E13.5797
G1 X71.022 Y126.299 E13.59209
G1 X70.914 Y125.61 E13.60449
G1 X70.885 Y125.016 E13.61506
G1 X70.885 Y92.074 E14.20064
G1 X70.925 Y91.377 E14.21305
G1 X71.044 Y90.69 E14.22544
G1 X71.242 Y90.021 E14.23784
G1 X71.514 Y89.378 E14.25026
G1 X71.858 Y88.772 E14.26264
G1 X72.27 Y88.208 E14.27506
G1 X72.669 Y87.768 E14.28562
G1 X72.792 Y87.645 E14.28871
G1 X73.313 Y87.18 E14.30112
M204 S625
M205 X6 Y6
G0 F4363.6 X73.592 Y87.495
M204 S500
M205 X5 Y5
G1 F960 X74.145 Y87.111 E14.31309
G1 X74.74 Y86.795 E14.32507
G1 X75.367 Y86.552 E14.33702
G1 X76.019 Y86.385 E14.34898
G1 X76.687 Y86.296 E14.36096
G1 X77.098 Y86.281 E14.36827
G1 X84.402 Y86.281 E14.49811
G1 X85.074 Y86.321 E14.51008
G1 X85.737 Y86.44 E14.52205
G1 X86.38 Y86.637 E14.534
G1 X86.996 Y86.909 E14.54597
G1 X87.575 Y87.252 E14.55794
G1 X88.11 Y87.661 E14.56991
G1 X88.411 Y87.942 E14.57723
G1 X88.534 Y88.065 E14.58032
G1 X88.981 Y88.568 E14.59228
G1 X89.365 Y89.121 E14.60425
G1 X89.681 Y89.716 E14.61622
G1 X89.924 Y90.343 E14.62818
G1 X90.091 Y90.995 E14.64014
G1 X90.18 Y91.663 E14.65212
G1 X90.195 Y92.074 E14.65943
G1 X90.195 Y92.996 E14.67582
G1 X127.355 Y92.996 E15.33638
G1 X127.355 Y92.074 E15.35277
G1 X127.395 Y91.402 E15.36473
G1 X127.514 Y90.739 E15.37671
G1 X127.711 Y90.096 E15.38866
G1 X127.983 Y89.48 E15.40063
G1 X128.326 Y88.901 E15.41259
G1 X128.735 Y88.366 E15.42456
G1 X129.016 Y88.065 E15.43188
G1 X129.139 Y87.942 E15.43498
G1 X129.642 Y87.495 E15.44694
G1 X130.195 Y87.111 E15.45891
G1 X130.79 Y86.795 E15.47088
G1 X131.417 Y86.552 E15.48283
G1 X132.069 Y86.385 E15.4948
G1 X132.737 Y86.296 E15.50678
G1 X133.148 Y86.281 E15.51409
G1 X137.902 Y86.281 E15.5986
G1 X138.574 Y86.321 E15.61056
G1 X139.237 Y86.44 E15.62254
G1 X139.88 Y86.637 E15.63449
G1 X140.496 Y86.909 E15.64646
G1 X141.075 Y87.252 E15.65842
G1 X141.61 Y87.661 E15.67039
G1 X141.911 Y87.942 E15.67771
G1 X142.034 Y88.065 E15.68081
G1 X142.481 Y88.568 E15.69277
G1 X142.865 Y89.121 E15.70474
G1 X143.181 Y89.716 E15.71671
G1 X143.424 Y90.343 E15.72866
G1 X143.591 Y90.995 E15.74063
G1 X143.68 Y91.663 E15.75261
G1 X143.695 Y92.074 E15.75992
G1 X143.695 Y97.031 E15.84803
G1 X144.105 Y96.893 E15.85572
G1 X144.765 Y96.757 E15.8677
