;START_OF_HEADER
;HEADER_VERSION:0.1
;FLAVOR:Griffin
;GENERATOR.NAME:Cura_SteamEngine
;GENERATOR.VERSION:3.5.1
;GENERATOR.BUILD_DATE:2018-10-16
;TARGET_MACHINE.NAME:Ultimaker 3
;EXTRUDER_TRAIN.0.INITIAL_TEMPERATURE:210
;EXTRUDER_TRAIN.0.MATERIAL.VOLUME_USED:26146
;EXTRUDER_TRAIN.0.MATERIAL.GUID:506c9f0d-e3aa-4bd4-b2d2-23e2425b1aa9
;EXTRUDER_TRAIN.0.NOZZLE.DIAMETER:0.4
;EXTRUDER_TRAIN.0.NOZZLE.NAME:AA 0.4
;BUILD_PLATE.TYPE:glass
;BUILD_PLATE.INITIAL_TEMPERATURE:60
;PRINT.TIME:12119
;PRINT.SIZE.MIN.X:9
;PRINT.SIZE.MIN.Y:6
;PRINT.SIZE.MIN.Z:0.27
;PRINT.SIZE.MAX.X:152.622
;PRINT.SIZE.MAX.Y:173.248
;PRINT.SIZE.MAX.Z:57.87
;END_OF_HEADER
;Generated with Cura_SteamEngine 3.5.1
T0
M82 ;absolute extrusion mode

G92 E0
M109 S210
G0 F15000 X9 Y6 Z2
G280
G1 F1500 E-6.5
;LAYER_COUNT:289
;LAYER:0
M107
M204 S625
M205 X6 Y6
G0 F4363.6 X81.538 Y47.075 Z0.27
M204 S500
M205 X5 Y5
;TYPE:SKIRT
G1 F1500 E0
G1 F960 X81.934 Y46.391 E0.01405
G1 X82.341 Y45.768 E0.02728
G1 X83.022 Y44.972 E0.0459
G1 X83.573 Y44.419 E0.05978
G1 X84.126 Y43.92 E0.07302
G1 X84.996 Y43.32 E0.0918
G1 X85.673 Y42.926 E0.10573
G1 X86.336 Y42.587 E0.11896
G1 X87.342 Y42.229 E0.13794
G1 X88.1 Y42.023 E0.15191
G1 X88.827 Y41.866 E0.16513
G1 X89.917 Y41.78 E0.18456
G1 X143.056 Y41.777 E1.12916
G1 X143.799 Y41.817 E1.14239
G1 X144.805 Y42.001 E1.16057
G1 X145.564 Y42.199 E1.17451
G1 X146.273 Y42.426 E1.18774
G1 X147.27 Y42.898 E1.20735
G1 X147.969 Y43.3 E1.22169
G1 X148.593 Y43.705 E1.23491
G1 X149.41 Y44.402 E1.254
G1 X149.957 Y44.948 E1.26774
G1 X150.455 Y45.502 E1.28098
G1 X151.044 Y46.356 E1.29942
G1 X151.442 Y47.037 E1.31344
G1 X151.783 Y47.699 E1.32668
G1 X152.146 Y48.717 E1.34589
G1 X152.352 Y49.475 E1.35986
G1 X152.509 Y50.202 E1.37308
G1 X152.595 Y51.28 E1.3923
G1 X152.622 Y66.637 E1.66529
G1 X152.583 Y67.38 E1.67851
G1 X152.465 Y68.115 E1.69174
G1 X152.269 Y68.833 E1.70497
G1 X151.997 Y69.526 E1.71821
G1 X151.652 Y70.185 E1.73143
G1 X151.238 Y70.804 E1.74467
G1 X150.592 Y71.549 E1.7622
G1 X150.469 Y71.672 E1.76529
G1 X149.915 Y72.17 E1.77853
G1 X149.311 Y72.605 E1.79176
G1 X148.664 Y72.972 E1.80498
G1 X147.982 Y73.269 E1.81821
G1 X147.271 Y73.49 E1.83144
G1 X146.541 Y73.634 E1.84467
G1 X145.569 Y73.702 E1.86199
G1 X112.328 Y73.702 E2.45288
G1 X112.328 Y141.298 E3.65447
G1 X145.569 Y141.298 E4.24536
G1 X146.312 Y141.338 E4.25858
G1 X147.047 Y141.457 E4.27182
G1 X147.765 Y141.655 E4.28506
G1 X148.457 Y141.928 E4.29828
G1 X149.116 Y142.274 E4.31151
G1 X149.734 Y142.689 E4.32475
G1 X150.469 Y143.328 E4.34206
G1 X150.592 Y143.451 E4.34515
G1 X151.09 Y144.005 E4.35839
G1 X151.525 Y144.609 E4.37162
G1 X151.892 Y145.256 E4.38485
G1 X152.189 Y145.938 E4.39807
G1 X152.41 Y146.649 E4.4113
G1 X152.554 Y147.379 E4.42453
G1 X152.622 Y148.351 E4.44185
G1 X152.622 Y166.195 E4.75905
G1 X152.582 Y166.938 E4.77227
G1 X152.463 Y167.673 E4.78551
G1 X152.265 Y168.391 E4.79875
G1 X151.992 Y169.083 E4.81197
G1 X151.646 Y169.742 E4.8252
G1 X151.231 Y170.36 E4.83843
G1 X150.592 Y171.095 E4.85575
G1 X150.469 Y171.218 E4.85884
G1 X149.915 Y171.716 E4.87208
G1 X149.311 Y172.151 E4.88531
G1 X148.664 Y172.518 E4.89853
G1 X147.982 Y172.815 E4.91176
G1 X147.271 Y173.036 E4.92499
G1 X146.541 Y173.18 E4.93822
G1 X145.566 Y173.248 E4.95559
G1 X89.94 Y173.223 E5.9444
G1 X89.197 Y173.183 E5.95763
G1 X88.192 Y172.998 E5.97579
G1 X87.434 Y172.8 E5.98972
G1 X86.725 Y172.574 E6.00295
G1 X85.73 Y172.102 E6.02252
G1 X85.031 Y171.7 E6.03686
G1 X84.407 Y171.295 E6.05008
G1 X83.59 Y170.598 E6.06917
G1 X83.043 Y170.052 E6.08291
G1 X82.545 Y169.498 E6.09615
G1 X81.956 Y168.644 E6.11459
G1 X81.558 Y167.963 E6.12861
G1 X81.217 Y167.301 E6.14185
G1 X80.854 Y166.283 E6.16106
G1 X80.648 Y165.525 E6.17502
G1 X80.491 Y164.798 E6.18824
G1 X80.405 Y163.708 E6.20768
G1 X80.403 Y51.306 E8.20574
G1 X80.443 Y50.563 E8.21896
G1 X80.636 Y49.524 E8.23775
G1 X80.838 Y48.765 E8.25171
G1 X81.068 Y48.057 E8.26494
G1 X81.538 Y47.075 E8.28429
M204 S625
M205 X6 Y6
G0 F4363.6 X81.901 Y47.285
M204 S500
M205 X5 Y5
G1 F960 X82.297 Y46.601 E8.29834
G1 X82.693 Y45.998 E8.31117
G1 X83.319 Y45.268 E8.32826
G1 X83.87 Y44.715 E8.34214
G1 X84.407 Y44.233 E8.35497
G1 X85.207 Y43.683 E8.37222
G1 X85.884 Y43.289 E8.38615
G1 X86.527 Y42.962 E8.39897
G1 X87.452 Y42.634 E8.41642
G1 X88.21 Y42.428 E8.43038
G1 X88.915 Y42.278 E8.44319
G1 X89.917 Y42.2 E8.46106
G1 X143.056 Y42.197 E9.40565
G1 X143.776 Y42.237 E9.41847
G1 X144.699 Y42.408 E9.43516
G1 X145.458 Y42.606 E9.4491
G1 X146.145 Y42.826 E9.46193
G1 X147.061 Y43.262 E9.47996
G1 X147.76 Y43.664 E9.49429
G1 X148.364 Y44.057 E9.5071
G1 X149.113 Y44.7 E9.52465
G1 X149.66 Y45.246 E9.53839
G1 X150.142 Y45.783 E9.55122
G1 X150.682 Y46.568 E9.56815
G1 X151.08 Y47.249 E9.58217
G1 X151.408 Y47.891 E9.59499
G1 X151.741 Y48.827 E9.61265
G1 X151.947 Y49.585 E9.62661
G1 X152.097 Y50.29 E9.63942
G1 X152.175 Y51.281 E9.65709
G1 X152.202 Y66.638 E9.93008
G1 X152.163 Y67.358 E9.9429
G1 X152.045 Y68.07 E9.95573
G1 X151.849 Y68.764 E9.96855
G1 X151.577 Y69.432 E9.98137
G1 X151.233 Y70.066 E9.99419
G1 X150.821 Y70.658 E10.00701
G1 X150.295 Y71.252 E10.02111
G1 X150.172 Y71.375 E10.02421
G1 X149.635 Y71.856 E10.03702
G1 X149.047 Y72.275 E10.04986
G1 X148.417 Y72.626 E10.06268
G1 X147.752 Y72.905 E10.0755
G1 X147.06 Y73.109 E10.08832
G1 X146.35 Y73.235 E10.10114
G1 X145.569 Y73.282 E10.11505
G1 X111.908 Y73.282 E10.7134
G1 X111.908 Y141.718 E11.92992
G1 X145.569 Y141.718 E12.52828
G1 X146.289 Y141.758 E12.5411
G1 X147.001 Y141.877 E12.55393
G1 X147.695 Y142.075 E12.56676
G1 X148.362 Y142.348 E12.57957
G1 X148.996 Y142.693 E12.5924
G1 X149.587 Y143.106 E12.60521
G1 X150.172 Y143.625 E12.61912
G1 X150.295 Y143.748 E12.62221
G1 X150.776 Y144.285 E12.63502
G1 X151.195 Y144.873 E12.64786
G1 X151.546 Y145.503 E12.66068
G1 X151.825 Y146.168 E12.6735
G1 X152.029 Y146.86 E12.68632
G1 X152.155 Y147.57 E12.69914
G1 X152.202 Y148.351 E12.71305
G1 X152.202 Y166.195 E13.03024
G1 X152.162 Y166.915 E13.04306
G1 X152.043 Y167.627 E13.05589
G1 X151.845 Y168.321 E13.06872
G1 X151.572 Y168.988 E13.08153
G1 X151.227 Y169.622 E13.09436
G1 X150.814 Y170.213 E13.10718
G1 X150.295 Y170.798 E13.12108
G1 X150.172 Y170.921 E13.12417
G1 X149.635 Y171.402 E13.13699
G1 X149.047 Y171.821 E13.14982
G1 X148.417 Y172.172 E13.16264
G1 X147.752 Y172.451 E13.17546
G1 X147.06 Y172.655 E13.18829
G1 X146.35 Y172.781 E13.2011
G1 X145.566 Y172.828 E13.21507
G1 X89.94 Y172.803 E14.20387
G1 X89.22 Y172.763 E14.21669
G1 X88.298 Y172.592 E14.23336
G1 X87.54 Y172.394 E14.24729
G1 X86.853 Y172.173 E14.26011
G1 X85.939 Y171.738 E14.27811
G1 X85.24 Y171.336 E14.29244
G1 X84.636 Y170.943 E14.30525
G1 X83.887 Y170.3 E14.3228
G1 X83.34 Y169.754 E14.33654
G1 X82.858 Y169.217 E14.34936
G1 X82.318 Y168.432 E14.3663
G1 X81.92 Y167.751 E14.38032
G1 X81.592 Y167.109 E14.39314
G1 X81.259 Y166.173 E14.4108
G1 X81.053 Y165.415 E14.42476
G1 X80.903 Y164.71 E14.43757
G1 X80.825 Y163.708 E14.45544
G1 X80.823 Y51.306 E16.45349
G1 X80.863 Y50.586 E16.46631
G1 X81.042 Y49.632 E16.48357
G1 X81.244 Y48.873 E16.49753
G1 X81.468 Y48.187 E16.51036
G1 X81.901 Y47.285 E16.52814
M204 S625
M205 X6 Y6
G0 F4363.6 X82.265 Y47.496
M204 S500
M205 X5 Y5
G1 F960 X82.661 Y46.812 E16.54219
G1 X83.044 Y46.229 E16.55459
G1 X83.617 Y45.565 E16.57018
G1 X84.168 Y45.012 E16.58406
G1 X84.688 Y44.546 E16.59647
G1 X85.419 Y44.046 E16.61221
G1 X86.096 Y43.652 E16.62614
G1 X86.718 Y43.337 E16.63853
G1 X87.562 Y43.039 E16.65444
G1 X88.32 Y42.833 E16.6684
G1 X89.003 Y42.689 E16.68081
G1 X89.917 Y42.62 E16.69711
G1 X143.056 Y42.617 E17.6417
G1 X143.752 Y42.657 E17.6541
G1 X144.593 Y42.814 E17.6693
G1 X145.352 Y43.012 E17.68325
G1 X146.016 Y43.227 E17.69565
G1 X146.851 Y43.626 E17.7121
G1 X147.55 Y44.028 E17.72644
G1 X148.134 Y44.41 E17.73884
G1 X148.816 Y44.997 E17.75484
G1 X149.363 Y45.543 E17.76858
G1 X149.828 Y46.063 E17.78098
G1 X150.319 Y46.78 E17.79642
G1 X150.717 Y47.461 E17.81044
G1 X151.034 Y48.083 E17.82285
G1 X151.336 Y48.937 E17.83896
G1 X151.542 Y49.695 E17.85292
G1 X151.686 Y50.378 E17.86533
G1 X151.755 Y51.281 E17.88143
G1 X151.782 Y66.638 E18.15441
G1 X151.743 Y67.335 E18.16682
G1 X151.625 Y68.023 E18.17923
G1 X151.429 Y68.692 E18.19162
G1 X151.158 Y69.335 E18.20403
G1 X150.815 Y69.942 E18.21642
G1 X150.404 Y70.507 E18.22884
G1 X149.998 Y70.955 E18.23959
G1 X149.875 Y71.078 E18.24268
G1 X149.354 Y71.543 E18.25509
G1 X148.784 Y71.944 E18.26748
G1 X148.171 Y72.278 E18.27989
G1 X147.524 Y72.54 E18.2923
G1 X146.852 Y72.725 E18.30469
G1 X146.163 Y72.833 E18.31708
G1 X145.569 Y72.862 E18.32766
G1 X111.488 Y72.862 E18.93348
G1 X111.488 Y142.138 E20.16493
G1 X145.569 Y142.138 E20.77075
G1 X146.266 Y142.178 E20.78316
G1 X146.953 Y142.297 E20.79555
G1 X147.622 Y142.495 E20.80796
G1 X148.265 Y142.767 E20.82037
G1 X148.871 Y143.111 E20.83275
G1 X149.435 Y143.523 E20.84517
G1 X149.875 Y143.922 E20.85573
G1 X149.998 Y144.045 E20.85882
G1 X150.463 Y144.566 E20.87123
G1 X150.864 Y145.136 E20.88362
G1 X151.198 Y145.749 E20.89603
G1 X151.46 Y146.396 E20.90844
G1 X151.645 Y147.068 E20.92083
G1 X151.753 Y147.757 E20.93323
G1 X151.782 Y148.351 E20.9438
G1 X151.782 Y166.195 E21.26099
G1 X151.742 Y166.892 E21.2734
G1 X151.623 Y167.579 E21.2858
G1 X151.425 Y168.248 E21.2982
G1 X151.153 Y168.891 E21.31061
G1 X150.809 Y169.497 E21.323
G1 X150.397 Y170.061 E21.33541
G1 X149.998 Y170.501 E21.34597
G1 X149.875 Y170.624 E21.34906
G1 X149.354 Y171.089 E21.36148
G1 X148.784 Y171.49 E21.37386
G1 X148.171 Y171.824 E21.38627
G1 X147.524 Y172.086 E21.39868
G1 X146.852 Y172.271 E21.41107
G1 X146.163 Y172.379 E21.42347
G1 X145.566 Y172.408 E21.43409
G1 X89.94 Y172.383 E22.4229
G1 X89.244 Y172.343 E22.43529
G1 X88.404 Y172.185 E22.45049
G1 X87.646 Y171.987 E22.46441
G1 X86.982 Y171.773 E22.47681
G1 X86.149 Y171.374 E22.49323
G1 X85.45 Y170.972 E22.50757
G1 X84.866 Y170.59 E22.51997
G1 X84.184 Y170.003 E22.53597
G1 X83.637 Y169.457 E22.5497
G1 X83.172 Y168.937 E22.5621
G1 X82.681 Y168.22 E22.57755
G1 X82.283 Y167.539 E22.59157
G1 X81.966 Y166.917 E22.60398
G1 X81.664 Y166.063 E22.62009
G1 X81.458 Y165.305 E22.63405
G1 X81.314 Y164.622 E22.64646
G1 X81.245 Y163.708 E22.66275
G1 X81.243 Y51.306 E24.6608
G1 X81.283 Y50.61 E24.6732
G1 X81.448 Y49.74 E24.68894
G1 X81.65 Y48.981 E24.7029
G1 X81.868 Y48.318 E24.71531
G1 X82.265 Y47.496 E24.73153
M204 S625
M205 X6 Y6
G0 F4363.6 X82.628 Y47.706
M204 S500
M205 X5 Y5
G1 F960 X83.024 Y47.022 E24.74558
G1 X83.395 Y46.461 E24.75754
G1 X83.914 Y45.861 E24.77164
G1 X84.465 Y45.308 E24.78552
G1 X84.968 Y44.86 E24.79749
G1 X85.63 Y44.409 E24.81173
G1 X86.307 Y44.015 E24.82565
G1 X86.908 Y43.712 E24.83762
G1 X87.672 Y43.444 E24.85201
G1 X88.43 Y43.238 E24.86597
G1 X89.089 Y43.101 E24.87794
G1 X89.917 Y43.04 E24.8927
G1 X143.056 Y43.037 E25.83729
G1 X143.728 Y43.077 E25.84926
G1 X144.487 Y43.221 E25.86299
G1 X145.246 Y43.419 E25.87694
G1 X145.886 Y43.627 E25.8889
G1 X146.642 Y43.99 E25.90381
G1 X147.341 Y44.392 E25.91814
G1 X147.903 Y44.762 E25.9301
G1 X148.52 Y45.294 E25.94458
G1 X149.067 Y45.84 E25.95832
G1 X149.514 Y46.343 E25.97028
G1 X149.956 Y46.992 E25.98424
G1 X150.354 Y47.673 E25.99826
G1 X150.659 Y48.273 E26.01023
G1 X150.931 Y49.047 E26.02481
G1 X151.137 Y49.805 E26.03877
G1 X151.274 Y50.464 E26.05074
G1 X151.335 Y51.282 E26.06532
G1 X151.362 Y66.639 E26.3383
G1 X151.323 Y67.311 E26.35027
G1 X151.205 Y67.974 E26.36224
G1 X151.009 Y68.618 E26.37421
G1 X150.738 Y69.234 E26.38617
G1 X150.396 Y69.814 E26.39814
G1 X149.988 Y70.349 E26.4101
G1 X149.701 Y70.658 E26.4176
G1 X149.578 Y70.781 E26.42069
G1 X149.075 Y71.228 E26.43265
G1 X148.522 Y71.612 E26.44462
G1 X147.927 Y71.928 E26.45659
G1 X147.3 Y72.171 E26.46855
G1 X146.648 Y72.338 E26.48051
G1 X145.98 Y72.427 E26.49249
G1 X145.569 Y72.442 E26.4998
G1 X111.068 Y72.442 E27.11309
G1 X111.068 Y142.558 E28.35947
G1 X145.569 Y142.558 E28.97276
G1 X146.241 Y142.598 E28.98473
G1 X146.904 Y142.717 E28.9967
G1 X147.547 Y142.914 E29.00865
G1 X148.163 Y143.186 E29.02062
G1 X148.742 Y143.529 E29.03259
G1 X149.277 Y143.938 E29.04456
G1 X149.578 Y144.219 E29.05188
G1 X149.701 Y144.342 E29.05497
G1 X150.148 Y144.845 E29.06693
G1 X150.532 Y145.398 E29.0789
G1 X150.848 Y145.993 E29.09087
G1 X151.091 Y146.62 E29.10283
G1 X151.258 Y147.272 E29.11479
G1 X151.347 Y147.94 E29.12677
G1 X151.362 Y148.351 E29.13408
G1 X151.362 Y166.195 E29.45128
G1 X151.322 Y166.867 E29.46324
G1 X151.203 Y167.53 E29.47522
G1 X151.006 Y168.173 E29.48717
G1 X150.734 Y168.789 E29.49914
G1 X150.391 Y169.368 E29.5111
G1 X149.982 Y169.903 E29.52307
G1 X149.701 Y170.204 E29.53039
G1 X149.578 Y170.327 E29.53349
G1 X149.075 Y170.774 E29.54545
G1 X148.522 Y171.158 E29.55742
G1 X147.927 Y171.474 E29.56939
G1 X147.3 Y171.717 E29.58134
G1 X146.648 Y171.884 E29.59331
G1 X145.98 Y171.973 E29.60529
G1 X145.566 Y171.988 E29.61265
G1 X89.94 Y171.963 E30.60146
G1 X89.268 Y171.923 E30.61343
G1 X88.51 Y171.779 E30.62714
G1 X87.752 Y171.581 E30.64107
G1 X87.112 Y171.372 E30.65303
G1 X86.358 Y171.01 E30.6679
G1 X85.659 Y170.608 E30.68224
G1 X85.097 Y170.238 E30.6942
G1 X84.48 Y169.706 E30.70868
G1 X83.933 Y169.16 E30.72242
G1 X83.486 Y168.657 E30.73438
G1 X83.044 Y168.008 E30.74834
G1 X82.646 Y167.327 E30.76236
G1 X82.341 Y166.727 E30.77432
G1 X82.069 Y165.953 E30.78891
G1 X81.863 Y165.195 E30.80287
G1 X81.726 Y164.536 E30.81483
G1 X81.665 Y163.708 E30.82959
G1 X81.663 Y51.306 E32.82765
G1 X81.703 Y50.634 E32.83961
G1 X81.854 Y49.848 E32.85384
G1 X82.056 Y49.089 E32.8678
G1 X82.267 Y48.45 E32.87977
G1 X82.628 Y47.706 E32.89447
M204 S625
M205 X6 Y6
G0 F4363.6 X82.992 Y47.917
M204 S500
M205 X5 Y5
G1 F960 X83.388 Y47.233 E32.90851
G1 X83.746 Y46.693 E32.92003
G1 X84.212 Y46.157 E32.93266
G1 X84.763 Y45.604 E32.94653
G1 X85.248 Y45.175 E32.95804
G1 X85.841 Y44.772 E32.97079
G1 X86.518 Y44.378 E32.98471
G1 X87.097 Y44.088 E32.99622
G1 X87.782 Y43.85 E33.00911
G1 X88.54 Y43.644 E33.02308
G1 X89.175 Y43.513 E33.0346
G1 X89.917 Y43.46 E33.04783
G1 X143.056 Y43.457 E33.99242
G1 X143.702 Y43.497 E34.00393
G1 X144.381 Y43.627 E34.01622
G1 X145.14 Y43.825 E34.03016
G1 X145.756 Y44.027 E34.04169
G1 X146.432 Y44.354 E34.05503
G1 X147.131 Y44.756 E34.06937
G1 X147.672 Y45.113 E34.08089
G1 X148.223 Y45.591 E34.09386
G1 X148.77 Y46.137 E34.10759
G1 X149.199 Y46.622 E34.1191
G1 X149.594 Y47.204 E34.13161
G1 X149.992 Y47.885 E34.14563
G1 X150.283 Y48.463 E34.15713
G1 X150.525 Y49.157 E34.1702
G1 X150.731 Y49.915 E34.18416
G1 X150.862 Y50.55 E34.19569
G1 X150.915 Y51.283 E34.20875
G1 X150.942 Y66.64 E34.48174
G1 X150.903 Y67.286 E34.49324
G1 X150.785 Y67.923 E34.50476
G1 X150.589 Y68.541 E34.51628
G1 X150.319 Y69.129 E34.52778
G1 X149.978 Y69.68 E34.5393
G1 X149.404 Y70.361 E34.55513
G1 X149.281 Y70.484 E34.55822
G1 X148.796 Y70.913 E34.56974
G1 X148.261 Y71.279 E34.58126
G1 X147.686 Y71.576 E34.59276
G1 X147.078 Y71.8 E34.60428
G1 X146.447 Y71.948 E34.6158
G1 X145.569 Y72.022 E34.63146
G1 X110.648 Y72.022 E35.25222
G1 X110.648 Y142.978 E36.51353
G1 X145.569 Y142.978 E37.13429
G1 X146.216 Y143.018 E37.14581
G1 X146.852 Y143.137 E37.15731
G1 X147.469 Y143.334 E37.16882
G1 X148.058 Y143.605 E37.18035
G1 X148.608 Y143.947 E37.19186
G1 X149.281 Y144.516 E37.20753
G1 X149.404 Y144.639 E37.21062
G1 X149.833 Y145.124 E37.22213
G1 X150.199 Y145.659 E37.23365
G1 X150.496 Y146.234 E37.24516
G1 X150.72 Y146.842 E37.25667
G1 X150.868 Y147.473 E37.2682
G1 X150.942 Y148.351 E37.28386
G1 X150.942 Y166.195 E37.60105
G1 X150.902 Y166.842 E37.61258
G1 X150.783 Y167.478 E37.62408
G1 X150.586 Y168.095 E37.63559
G1 X150.315 Y168.684 E37.64712
G1 X149.973 Y169.234 E37.65863
G1 X149.404 Y169.907 E37.67429
G1 X149.281 Y170.03 E37.67739
G1 X148.796 Y170.459 E37.6889
G1 X148.261 Y170.825 E37.70042
G1 X147.686 Y171.122 E37.71192
G1 X147.078 Y171.346 E37.72344
G1 X146.447 Y171.494 E37.73496
G1 X145.567 Y171.568 E37.75066
G1 X89.941 Y171.543 E38.73947
G1 X89.294 Y171.503 E38.75099
G1 X88.616 Y171.373 E38.76326
G1 X87.858 Y171.175 E38.77719
G1 X87.243 Y170.972 E38.7887
G1 X86.568 Y170.646 E38.80202
G1 X85.869 Y170.244 E38.81636
G1 X85.328 Y169.887 E38.82788
G1 X84.777 Y169.409 E38.84085
G1 X84.23 Y168.863 E38.85459
