;START_OF_HEADER
;HEADER_VERSION:0.1
;FLAVOR:Griffin
;GENERATOR.NAME:Cura_SteamEngine
;GENERATOR.VERSION:3.5.1
;GENERATOR.BUILD_DATE:2018-10-16
;TARGET_MACHINE.NAME:Ultimaker 3
;EXTRUDER_TRAIN.0.INITIAL_TEMPERATURE:210
;EXTRUDER_TRAIN.0.MATERIAL.VOLUME_USED:16485
;EXTRUDER_TRAIN.0.MATERIAL.GUID:506c9f0d-e3aa-4bd4-b2d2-23e2425b1aa9
;EXTRUDER_TRAIN.0.NOZZLE.DIAMETER:0.4
;EXTRUDER_TRAIN.0.NOZZLE.NAME:AA 0.4
;BUILD_PLATE.TYPE:glass
;BUILD_PLATE.INITIAL_TEMPERATURE:60
;PRINT.TIME:7381
;PRINT.SIZE.MIN.X:9
;PRINT.SIZE.MIN.Y:6
;PRINT.SIZE.MIN.Z:0.27
;PRINT.SIZE.MAX.X:141.064
;PRINT.SIZE.MAX.Y:154.133
;PRINT.SIZE.MAX.Z:35.27
;END_OF_HEADER
;Generated with Cura_SteamEngine 3.5.1
T0
M82 ;absolute extrusion mode

G92 E0
M109 S210
G0 F15000 X9 Y6 Z2
G280
G1 F1500 E-6.5
;LAYER_COUNT:177
;LAYER:0
M107
M204 S625
M205 X6 Y6
G0 F4363.6 X105.258 Y64.25 Z0.27
M204 S500
M205 X5 Y5
;TYPE:SKIRT
G1 F1500 E0
G1 F960 X105.673 Y63.632 E0.01323
G1 X106.311 Y62.897 E0.03053
G1 X106.531 Y62.677 E0.03606
G1 X107.085 Y62.179 E0.04931
G1 X107.689 Y61.744 E0.06254
G1 X108.336 Y61.377 E0.07576
G1 X109.018 Y61.08 E0.08898
G1 X109.729 Y60.859 E0.10222
G1 X110.459 Y60.715 E0.11544
G1 X111.431 Y60.647 E0.13276
G1 X121.562 Y60.647 E0.31285
G1 X122.305 Y60.687 E0.32608
G1 X123.04 Y60.806 E0.33932
G1 X123.758 Y61.004 E0.35256
G1 X124.45 Y61.277 E0.36578
G1 X125.109 Y61.623 E0.37901
G1 X125.727 Y62.038 E0.39224
G1 X126.462 Y62.677 E0.40955
G1 X126.682 Y62.897 E0.41509
G1 X127.18 Y63.451 E0.42833
G1 X127.615 Y64.055 E0.44156
G1 X127.982 Y64.702 E0.45478
G1 X128.279 Y65.384 E0.468
G1 X128.5 Y66.095 E0.48124
G1 X128.644 Y66.825 E0.49447
G1 X128.712 Y67.797 E0.51179
G1 X128.712 Y78.313 E0.69872
G1 X128.678 Y78.939 E0.70986
G1 X132.093 Y78.937 E0.77057
G1 X133.034 Y79.001 E0.78733
G1 X133.598 Y79.078 E0.79745
G1 X134.329 Y79.218 E0.81068
G1 X135.041 Y79.436 E0.82392
G1 X135.767 Y79.749 E0.83797
G1 X136.469 Y80.101 E0.85193
G1 X137.116 Y80.47 E0.86517
G1 X137.719 Y80.906 E0.8784
G1 X138.29 Y81.423 E0.89209
G1 X138.648 Y81.785 E0.90114
G1 X139.143 Y82.342 E0.91439
G1 X139.73 Y83.206 E0.93296
G1 X139.992 Y83.662 E0.9423
G1 X140.327 Y84.326 E0.95552
G1 X140.686 Y85.356 E0.97491
G1 X140.819 Y85.863 E0.98423
G1 X140.969 Y86.592 E0.99746
G1 X141.045 Y87.523 E1.01407
G1 X141.063 Y88.796 E1.0367
G1 X140.993 Y89.887 E1.05613
G1 X140.917 Y90.412 E1.06556
G1 X140.77 Y91.142 E1.0788
G1 X140.547 Y91.852 E1.09203
G1 X140.249 Y92.532 E1.10522
G1 X139.895 Y93.236 E1.11923
G1 X139.526 Y93.882 E1.13246
G1 X139.089 Y94.485 E1.14569
G1 X138.57 Y95.058 E1.15944
G1 X138.212 Y95.411 E1.16837
G1 X137.654 Y95.904 E1.18161
G1 X136.8 Y96.484 E1.19996
G1 X136.339 Y96.749 E1.20941
G1 X135.674 Y97.085 E1.22266
G1 X134.638 Y97.446 E1.24216
G1 X134.133 Y97.578 E1.25144
G1 X133.403 Y97.727 E1.26468
G1 X132.441 Y97.803 E1.28183
G1 X132.429 Y97.803 E1.28205
G1 X132.428 Y132.727 E1.90286
G1 X132.47 Y132.727 E1.9036
G1 X133.213 Y132.774 E1.91684
G1 X134.248 Y132.976 E1.93558
G1 X134.752 Y133.115 E1.94488
G1 X135.458 Y133.352 E1.95811
G1 X136.45 Y133.839 E1.97776
G1 X136.906 Y134.11 E1.98719
G1 X137.525 Y134.524 E2.00042
G1 X138.294 Y135.194 E2.01855
G1 X138.649 Y135.553 E2.02753
G1 X139.143 Y136.11 E2.04076
G1 X139.73 Y136.974 E2.05933
G1 X139.992 Y137.43 E2.06868
G1 X140.327 Y138.094 E2.0819
G1 X140.686 Y139.124 E2.10129
G1 X140.819 Y139.631 E2.11061
G1 X140.969 Y140.36 E2.12384
G1 X141.046 Y141.356 E2.1416
G1 X141.064 Y145.191 E2.20977
G1 X140.993 Y146.213 E2.22798
G1 X140.917 Y146.74 E2.23744
G1 X140.771 Y147.47 E2.25068
G1 X140.548 Y148.18 E2.2639
G1 X140.246 Y148.871 E2.27731
G1 X139.892 Y149.573 E2.29129
G1 X139.521 Y150.219 E2.30453
G1 X139.084 Y150.821 E2.31775
G1 X138.577 Y151.381 E2.33118
G1 X138.217 Y151.737 E2.34018
G1 X137.66 Y152.231 E2.35341
G1 X136.796 Y152.818 E2.37198
G1 X136.34 Y153.08 E2.38133
G1 X135.676 Y153.415 E2.39455
G1 X134.644 Y153.775 E2.41398
G1 X134.14 Y153.907 E2.42324
G1 X133.411 Y154.057 E2.43647
G1 X132.384 Y154.133 E2.45478
G1 X100.6 Y154.132 E3.01977
G1 X99.857 Y154.092 E3.03299
G1 X98.782 Y153.889 E3.05244
G1 X98.278 Y153.752 E3.06173
G1 X97.571 Y153.519 E3.07496
G1 X96.575 Y153.034 E3.09465
G1 X96.119 Y152.765 E3.10406
G1 X95.499 Y152.353 E3.11729
G1 X94.706 Y151.663 E3.13598
G1 X94.342 Y151.294 E3.14519
G1 X93.849 Y150.737 E3.15842
G1 X93.257 Y149.862 E3.1772
G1 X92.995 Y149.403 E3.18659
G1 X92.662 Y148.738 E3.19981
G1 X92.309 Y147.721 E3.21895
G1 X92.177 Y147.216 E3.22823
G1 X92.028 Y146.486 E3.24147
G1 X91.952 Y145.462 E3.25972
G1 X91.957 Y87.594 E4.28838
G1 X91.997 Y86.851 E4.30161
G1 X92.117 Y86.117 E4.31483
G1 X92.208 Y85.747 E4.3216
G1 X92.348 Y85.241 E4.33094
G1 X92.585 Y84.535 E4.34417
G1 X93.073 Y83.543 E4.36383
G1 X93.341 Y83.093 E4.37314
G1 X93.756 Y82.475 E4.38637
G1 X94.415 Y81.718 E4.40421
G1 X94.776 Y81.36 E4.41325
G1 X95.332 Y80.865 E4.42648
G1 X96.204 Y80.272 E4.44522
G1 X96.66 Y80.01 E4.45457
G1 X97.324 Y79.675 E4.46779
G1 X98.35 Y79.317 E4.48711
G1 X98.856 Y79.184 E4.49641
G1 X99.585 Y79.033 E4.50964
G1 X100.614 Y78.956 E4.52799
G1 X104.316 Y78.954 E4.59379
G1 X104.296 Y78.784 E4.59684
G1 X104.28 Y78.319 E4.60511
G1 X104.281 Y67.796 E4.79216
G1 X104.321 Y67.053 E4.80539
G1 X104.441 Y66.318 E4.81863
G1 X104.638 Y65.601 E4.83185
G1 X104.912 Y64.909 E4.84508
G1 X105.258 Y64.25 E4.85831
M204 S625
M205 X6 Y6
G0 F4363.6 X105.676 Y64.37
M204 S500
M205 X5 Y5
G1 F960 X106.089 Y63.778 E4.87114
G1 X106.608 Y63.194 E4.88503
G1 X106.828 Y62.974 E4.89056
G1 X107.365 Y62.493 E4.90337
G1 X107.953 Y62.074 E4.91621
G1 X108.583 Y61.723 E4.92903
G1 X109.248 Y61.444 E4.94185
G1 X109.94 Y61.24 E4.95467
G1 X110.65 Y61.114 E4.96749
G1 X111.431 Y61.067 E4.9814
G1 X121.562 Y61.067 E5.16148
G1 X122.282 Y61.107 E5.1743
G1 X122.994 Y61.226 E5.18714
G1 X123.688 Y61.424 E5.19996
G1 X124.355 Y61.697 E5.21278
G1 X124.989 Y62.042 E5.22561
G1 X125.58 Y62.455 E5.23842
G1 X126.165 Y62.974 E5.25232
G1 X126.385 Y63.194 E5.25785
G1 X126.866 Y63.731 E5.27067
G1 X127.285 Y64.319 E5.2835
G1 X127.636 Y64.949 E5.29632
G1 X127.915 Y65.614 E5.30914
G1 X128.119 Y66.306 E5.32197
G1 X128.245 Y67.016 E5.33479
G1 X128.292 Y67.797 E5.34869
G1 X128.292 Y78.313 E5.53563
G1 X128.252 Y79.033 E5.54844
G1 X128.197 Y79.359 E5.55432
G1 X132.093 Y79.357 E5.62358
G1 X132.978 Y79.417 E5.63934
G1 X133.542 Y79.494 E5.64946
G1 X134.25 Y79.631 E5.66228
G1 X134.939 Y79.845 E5.67511
G1 X135.579 Y80.125 E5.68752
G1 X136.281 Y80.477 E5.70148
G1 X136.907 Y80.835 E5.7143
G1 X137.489 Y81.261 E5.72712
G1 X137.992 Y81.718 E5.7392
G1 X138.35 Y82.08 E5.74825
G1 X138.828 Y82.621 E5.76109
G1 X139.366 Y83.415 E5.77814
G1 X139.628 Y83.871 E5.78748
G1 X139.952 Y84.515 E5.8003
G1 X140.28 Y85.462 E5.81811
G1 X140.413 Y85.969 E5.82743
G1 X140.557 Y86.676 E5.84026
G1 X140.625 Y87.529 E5.85547
G1 X140.643 Y88.802 E5.8781
G1 X140.577 Y89.827 E5.89636
G1 X140.501 Y90.352 E5.90579
G1 X140.358 Y91.059 E5.91861
G1 X140.138 Y91.746 E5.93143
G1 X139.874 Y92.344 E5.94305
G1 X139.52 Y93.048 E5.95706
G1 X139.161 Y93.673 E5.96987
G1 X138.735 Y94.255 E5.98269
G1 X138.275 Y94.759 E5.99482
G1 X137.917 Y95.112 E6.00376
G1 X137.376 Y95.589 E6.01658
G1 X136.59 Y96.12 E6.03344
G1 X136.129 Y96.385 E6.04289
G1 X135.485 Y96.709 E6.05571
G1 X134.531 Y97.039 E6.07365
G1 X134.026 Y97.171 E6.08293
G1 X133.319 Y97.315 E6.09576
G1 X132.438 Y97.383 E6.11147
G1 X132.009 Y97.387 E6.11909
G1 X132.008 Y133.143 E6.75469
G1 X132.466 Y133.147 E6.76283
G1 X133.186 Y133.194 E6.77566
G1 X134.137 Y133.381 E6.79289
G1 X134.641 Y133.52 E6.80218
G1 X135.325 Y133.75 E6.81501
G1 X136.236 Y134.2 E6.83307
G1 X136.692 Y134.471 E6.8425
G1 X137.291 Y134.873 E6.85532
G1 X137.995 Y135.49 E6.87196
G1 X138.35 Y135.849 E6.88094
G1 X138.828 Y136.389 E6.89376
G1 X139.366 Y137.183 E6.9108
G1 X139.628 Y137.639 E6.92015
G1 X139.952 Y138.283 E6.93297
G1 X140.28 Y139.23 E6.95078
G1 X140.413 Y139.737 E6.9601
G1 X140.557 Y140.444 E6.97293
G1 X140.626 Y141.358 E6.98922
G1 X140.644 Y145.193 E7.05739
G1 X140.577 Y146.153 E7.0745
G1 X140.501 Y146.68 E7.08396
G1 X140.359 Y147.387 E7.09678
G1 X140.139 Y148.075 E7.10962
G1 X139.871 Y148.682 E7.12142
G1 X139.517 Y149.384 E7.13539
G1 X139.157 Y150.009 E7.14821
G1 X138.73 Y150.591 E7.16104
G1 X138.281 Y151.082 E7.17287
G1 X137.921 Y151.438 E7.18187
G1 X137.381 Y151.916 E7.19469
G1 X136.587 Y152.454 E7.21174
G1 X136.131 Y152.716 E7.22109
G1 X135.487 Y153.04 E7.2339
G1 X134.537 Y153.369 E7.25177
G1 X134.033 Y153.501 E7.26104
G1 X133.326 Y153.644 E7.27386
G1 X132.384 Y153.713 E7.29065
G1 X100.6 Y153.712 E7.85564
G1 X99.88 Y153.672 E7.86846
G1 X98.892 Y153.484 E7.88634
G1 X98.388 Y153.347 E7.89562
G1 X97.704 Y153.12 E7.90843
G1 X96.788 Y152.672 E7.92656
G1 X96.332 Y152.403 E7.93597
G1 X95.732 Y152.003 E7.94879
G1 X95.005 Y151.368 E7.96594
G1 X94.641 Y150.999 E7.97516
G1 X94.164 Y150.458 E7.98798
G1 X93.622 Y149.654 E8.00522
G1 X93.36 Y149.195 E8.01461
G1 X93.038 Y148.55 E8.02743
G1 X92.716 Y147.614 E8.04502
G1 X92.584 Y147.109 E8.0543
G1 X92.44 Y146.402 E8.06712
G1 X92.372 Y145.462 E8.08388
G1 X92.377 Y87.594 E9.11254
G1 X92.417 Y86.874 E9.12536
G1 X92.613 Y85.859 E9.14373
G1 X92.753 Y85.353 E9.15306
G1 X92.983 Y84.669 E9.16589
G1 X93.434 Y83.758 E9.18396
G1 X93.702 Y83.308 E9.19327
G1 X94.105 Y82.71 E9.20609
G1 X94.711 Y82.017 E9.22246
G1 X95.072 Y81.659 E9.23149
G1 X95.612 Y81.18 E9.24432
G1 X96.413 Y80.636 E9.26154
G1 X96.869 Y80.374 E9.27088
G1 X97.513 Y80.05 E9.2837
G1 X98.457 Y79.723 E9.30146
G1 X98.963 Y79.59 E9.31076
G1 X99.67 Y79.445 E9.32359
G1 X100.614 Y79.376 E9.34041
G1 X104.794 Y79.373 E9.41472
G1 X104.755 Y79.165 E9.41848
G1 X104.7 Y78.319 E9.43355
G1 X104.701 Y67.796 E9.62061
G1 X104.741 Y67.076 E9.63342
G1 X104.861 Y66.365 E9.64624
G1 X105.058 Y65.671 E9.65907
G1 X105.331 Y65.003 E9.67189
G1 X105.676 Y64.37 E9.68471
M204 S625
M205 X6 Y6
G0 F4363.6 X106.095 Y64.494
M204 S500
M205 X5 Y5
G1 F960 X106.506 Y63.93 E9.69711
G1 X106.905 Y63.491 E9.70766
G1 X107.125 Y63.271 E9.71319
G1 X107.646 Y62.806 E9.7256
G1 X108.216 Y62.405 E9.73799
G1 X108.829 Y62.071 E9.7504
G1 X109.476 Y61.809 E9.76281
G1 X110.148 Y61.624 E9.7752
G1 X110.837 Y61.516 E9.7876
G1 X111.431 Y61.487 E9.79817
G1 X121.562 Y61.487 E9.97826
G1 X122.259 Y61.527 E9.99067
G1 X122.946 Y61.646 E10.00306
G1 X123.615 Y61.844 E10.01546
G1 X124.258 Y62.116 E10.02787
G1 X124.864 Y62.46 E10.04026
G1 X125.428 Y62.872 E10.05267
G1 X125.868 Y63.271 E10.06323
G1 X126.088 Y63.491 E10.06876
G1 X126.553 Y64.012 E10.08118
G1 X126.954 Y64.582 E10.09357
G1 X127.288 Y65.195 E10.10597
G1 X127.55 Y65.842 E10.11838
G1 X127.735 Y66.514 E10.13077
G1 X127.843 Y67.203 E10.14317
G1 X127.872 Y67.797 E10.15374
G1 X127.872 Y78.313 E10.34067
G1 X127.832 Y79.01 E10.35308
G1 X127.713 Y79.697 E10.36548
G1 X127.689 Y79.78 E10.36701
G1 X132.093 Y79.777 E10.4453
G1 X132.921 Y79.833 E10.46005
G1 X133.485 Y79.91 E10.47017
G1 X134.17 Y80.044 E10.48258
G1 X134.835 Y80.255 E10.49498
G1 X135.391 Y80.5 E10.50578
G1 X136.093 Y80.852 E10.51974
G1 X136.697 Y81.2 E10.53213
G1 X137.258 Y81.615 E10.54453
G1 X137.693 Y82.014 E10.55503
G1 X138.051 Y82.376 E10.56408
G1 X138.513 Y82.899 E10.57648
G1 X139.001 Y83.624 E10.59202
G1 X139.263 Y84.08 E10.60137
G1 X139.576 Y84.704 E10.61378
G1 X139.874 Y85.569 E10.63004
G1 X140.007 Y86.076 E10.63936
G1 X140.145 Y86.76 E10.65176
G1 X140.205 Y87.535 E10.66558
G1 X140.223 Y88.808 E10.68821
G1 X140.161 Y89.767 E10.70529
G1 X140.085 Y90.292 E10.71472
G1 X139.946 Y90.975 E10.72711
G1 X139.729 Y91.638 E10.73951
G1 X139.499 Y92.155 E10.74957
G1 X139.145 Y92.859 E10.76358
G1 X138.796 Y93.463 E10.77598
G1 X138.381 Y94.024 E10.78838
G1 X137.98 Y94.459 E10.7989
G1 X137.622 Y94.812 E10.80784
G1 X137.098 Y95.273 E10.82024
G1 X136.381 Y95.756 E10.83561
G1 X135.92 Y96.021 E10.84506
G1 X135.296 Y96.333 E10.85746
G1 X134.425 Y96.633 E10.87384
G1 X133.92 Y96.765 E10.88312
G1 X133.236 Y96.903 E10.89552
G1 X132.434 Y96.963 E10.90982
G1 X131.589 Y96.97 E10.92484
G1 X131.588 Y133.559 E11.57524
G1 X132.462 Y133.567 E11.59078
G1 X133.159 Y133.614 E11.6032
G1 X134.025 Y133.786 E11.61889
G1 X134.529 Y133.925 E11.62819
G1 X135.19 Y134.149 E11.64059
G1 X136.021 Y134.561 E11.65708
G1 X136.477 Y134.832 E11.66651
G1 X137.056 Y135.222 E11.67892
G1 X137.696 Y135.785 E11.69407
G1 X138.051 Y136.144 E11.70305
G1 X138.513 Y136.667 E11.71545
G1 X139.001 Y137.392 E11.73099
G1 X139.263 Y137.848 E11.74033
G1 X139.576 Y138.472 E11.75274
G1 X139.874 Y139.337 E11.76901
G1 X140.007 Y139.844 E11.77832
G1 X140.145 Y140.528 E11.79073
G1 X140.206 Y141.36 E11.80556
G1 X140.224 Y145.195 E11.87373
G1 X140.162 Y146.093 E11.88973
G1 X140.086 Y146.62 E11.89919
G1 X139.947 Y147.304 E11.9116
G1 X139.73 Y147.967 E11.924
G1 X139.496 Y148.493 E11.93424
G1 X139.142 Y149.195 E11.94821
G1 X138.792 Y149.799 E11.96062
G1 X138.376 Y150.359 E11.97302
G1 X137.986 Y150.783 E11.98326
G1 X137.626 Y151.139 E11.99226
G1 X137.103 Y151.601 E12.00467
G1 X136.378 Y152.089 E12.0202
G1 X135.922 Y152.351 E12.02955
G1 X135.298 Y152.664 E12.04196
G1 X134.431 Y152.962 E12.05826
G1 X133.927 Y153.094 E12.06752
G1 X133.243 Y153.232 E12.07992
G1 X132.384 Y153.293 E12.09523
G1 X100.6 Y153.292 E12.66022
G1 X99.903 Y153.252 E12.67263
G1 X99.003 Y153.079 E12.68892
G1 X98.499 Y152.942 E12.69821
G1 X97.837 Y152.72 E12.71062
G1 X97.002 Y152.31 E12.72715
G1 X96.546 Y152.041 E12.73657
G1 X95.966 Y151.653 E12.74897
G1 X95.304 Y151.073 E12.76461
G1 X94.94 Y150.704 E12.77383
G1 X94.48 Y150.18 E12.78622
G1 X93.987 Y149.446 E12.80194
G1 X93.725 Y148.987 E12.81134
G1 X93.414 Y148.362 E12.82374
G1 X93.122 Y147.508 E12.83979
G1 X92.99 Y147.003 E12.84907
G1 X92.852 Y146.319 E12.86147
G1 X92.792 Y145.462 E12.87674
G1 X92.797 Y87.594 E13.9054
G1 X92.837 Y86.898 E13.91779
G1 X93.018 Y85.971 E13.93458
G1 X93.158 Y85.465 E13.94392
G1 X93.382 Y84.804 E13.95632
G1 X93.795 Y83.973 E13.97282
G1 X94.063 Y83.523 E13.98213
G1 X94.453 Y82.945 E13.99452
G1 X95.007 Y82.315 E14.00944
G1 X95.368 Y81.957 E14.01847
G1 X95.89 Y81.495 E14.03087
G1 X96.622 Y81.001 E14.04656
G1 X97.078 Y80.739 E14.05591
G1 X97.702 Y80.426 E14.06832
G1 X98.564 Y80.129 E14.08453
G1 X99.07 Y79.996 E14.09383
G1 X99.754 Y79.858 E14.10623
G1 X100.614 Y79.796 E14.12156
G1 X105.311 Y79.793 E14.20505
G1 X105.236 Y79.505 E14.21034
G1 X105.14 Y78.814 E14.22274
G1 X105.12 Y78.319 E14.23155
G1 X105.121 Y67.796 E14.41861
G1 X105.161 Y67.1 E14.431
G1 X105.28 Y66.412 E14.44341
G1 X105.478 Y65.743 E14.45581
G1 X105.75 Y65.101 E14.46821
G1 X106.095 Y64.494 E14.48062
M204 S625
M205 X6 Y6
G0 F4363.6 X106.513 Y64.623
M204 S500
M205 X5 Y5
G1 F960 X106.922 Y64.089 E14.49258
G1 X107.202 Y63.788 E14.49988
G1 X107.422 Y63.568 E14.50541
G1 X107.925 Y63.121 E14.51738
G1 X108.478 Y62.737 E14.52934
G1 X109.073 Y62.421 E14.54132
G1 X109.7 Y62.178 E14.55327
G1 X110.352 Y62.011 E14.56524
G1 X111.02 Y61.922 E14.57722
G1 X111.431 Y61.907 E14.58453
G1 X121.562 Y61.907 E14.76461
G1 X122.234 Y61.947 E14.77658
G1 X122.897 Y62.066 E14.78855
G1 X123.54 Y62.263 E14.80051
G1 X124.156 Y62.535 E14.81248
G1 X124.735 Y62.878 E14.82444
G1 X125.27 Y63.287 E14.83641
G1 X125.571 Y63.568 E14.84373
G1 X125.791 Y63.788 E14.84926
G1 X126.238 Y64.291 E14.86122
G1 X126.622 Y64.844 E14.87319
G1 X126.938 Y65.439 E14.88517
G1 X127.181 Y66.066 E14.89712
G1 X127.348 Y66.718 E14.90909
G1 X127.437 Y67.386 E14.92107
G1 X127.452 Y67.797 E14.92838
G1 X127.452 Y78.313 E15.11531
G1 X127.412 Y78.985 E15.12727
G1 X127.293 Y79.648 E15.13925
G1 X127.124 Y80.2 E15.14951
G1 X132.094 Y80.197 E15.23786
G1 X132.864 Y80.249 E15.25158
G1 X133.428 Y80.326 E15.26169
G1 X134.088 Y80.457 E15.27366
G1 X134.729 Y80.664 E15.28563
G1 X135.202 Y80.875 E15.29484
G1 X135.904 Y81.227 E15.3088
G1 X136.487 Y81.564 E15.32077
G1 X137.026 Y81.968 E15.33274
G1 X137.395 Y82.309 E15.34167
G1 X137.753 Y82.671 E15.35072
G1 X138.197 Y83.177 E15.36269
G1 X138.637 Y83.833 E15.37673
G1 X138.899 Y84.289 E15.38608
G1 X139.199 Y84.892 E15.39805
G1 X139.467 Y85.675 E15.41276
G1 X139.6 Y86.182 E15.42208
G1 X139.732 Y86.842 E15.43404
G1 X139.785 Y87.541 E15.4465
G1 X139.803 Y88.814 E15.46913
G1 X139.746 Y89.706 E15.48502
G1 X139.67 Y90.231 E15.49445
G1 X139.534 Y90.891 E15.50643
G1 X139.321 Y91.529 E15.51839
